!!!!SEGMENT: pl-cz--iii-115--005_dankowski-adalbert--missa-es-benedictus.krn
!!!cenid: 18xx:826
!!!COM: Dankowski, Adalbert
!!!COM-rismID: pe30000793
!!!CDT: ~1760-~1836
!!!CNT: Polish
!!!OPR: Missa Es
!!!OTL: Benedictus
!!!OMV: 005
!!!PDT: 1802
!!!AGN: Sacred; Vespers
!!!SMS-siglum: PL-CZ
!!!SMS-shelfmark: III-115
!!!SMS-shelfwork: 001-005 M
!!!SMS-variant:
!!!SMS-altvar:
!!!NIFC-rismSourceID: 300000112
!!!NIFC-rismChildID: 300000112
!!!NIFC-islandoraID: pl-cz:34553
!!!URL-pdf-islandora: https://repozytorium.nifc.pl/islandora/object/pl-cz%3A34553/datastream/PDF/view
!!!URL-scan: https://polish.musicsources.pl/pl/lokalizacje/galeria/rekopisy/6832/1 @EN{Scan on Polish Music Sources Website} @PL{Skany w portalu Dziedzictwo Muzyki Polskiej w otwartym dostępie}
!!!ONB-nifc: UWAGA: części Mszy: Kyrie, Gloria, Credo, Sanctus, Benedictus, Agnus Dei. Uwaga: brak partii cor 1 i 2
!!!AIN: 1 alto 1 bass 2 clars 2 cor 1 organ 1 soprn 1 tenor 2 violn
!!!key: E-
**kern	**fba	**dynam	**kern	**dynam	**kern	**dynam	**kern	**text	**kern	**kern	**kern	**text	**kern	**kern	**kern	**kern
*	*	*	*group4	*	*group4	*	*group3	*	*group3	*group3	*group3	*	*group2	*group2	*group1	*group1
*part11	*part11	*part11	*part10	*part10	*part9	*part9	*part8	*part8	*part7	*part6	*part5	*part5	*part4	*part3	*part2	*part1
*staff11	*	*	*staff10	*	*staff9	*	*staff8	*staff8	*staff7	*staff6	*staff5	*staff5	*staff4	*staff3	*staff2	*staff1
*I"Organo.	*	*	*I"Violino Secundo.	*	*I"Violino Primo.	*	*I"Basso	*	*I"Tenore	*I"Alto	*I"Canto	*	*I"Corno Secondo	*I"Corno Primo	*I"Clarinetto Secundo in B.	*I"Clarinetto Primo in B
*I'org	*	*	*I'vl 2	*	*I'vl 1	*	*I'B	*	*I'T	*I'A	*I'S	*	*I'cor 2	*I'cor 1	*I'cl 2 in B	*I'cl 1 in B
*Iorgan	*	*	*Ivioln	*	*Ivioln	*	*Ibass	*	*Itenor	*Ialto	*Isoprn	*	*Icor	*Icor	*Iclars	*Iclars
*ICklav	*	*	*ICstr	*	*ICstr	*	*ICvox	*	*ICvox	*ICvox	*ICvox	*	*ICbras	*ICbras	*ICww	*ICww
*IGcont	*	*	*	*	*	*	*IGcoro	*	*IGcoro	*IGcoro	*IGcoro	*	*	*	*	*
*clefF4	*	*	*clefG2	*	*clefG2	*	*clefF4	*	*clefC4	*clefC3	*clefC1	*	*clefG2	*clefG2	*clefG2	*clefG2
*	*	*	*	*	*	*	*	*	*	*	*	*	*	*	*ITrd1c2	*ITrd1c2
*k[b-e-a-]	*	*	*k[e-b-a-]	*	*k[e-b-a-]	*	*k[b-e-a-]	*	*k[b-e-a-]	*k[b-e-a-]	*k[a-e-b-]	*	*k[b-e-a-]	*k[b-e-a-]	*k[b-e-a-]	*k[b-e-a-]
*E-:	*	*	*E-:	*	*E-:	*	*E-:	*	*E-:	*E-:	*E-:	*	*E-:	*E-:	*E-:	*E-:
*M2/4	*	*	*M2/4	*	*M2/4	*	*M2/4	*	*M2/4	*M2/4	*M2/4	*	*M2/4	*M2/4	*M2/4	*M2/4
=1	=1	=1	=1	=1	=1	=1	=1	=1	=1	=1	=1	=1	=1	=1	=1	=1
*2\right	*	*	*	*	*	*	*	*	*	*	*	*	*	*	*	*
*tremolo	*	*	*	*	*	*	*	*	*	*	*	*	*	*	*	*
!	!	!	!	!	!	!	!LO:TX:a:t=P:problem=miejscami źle podpisany tekst w źródle	!	!	!	!LO:TX:a:t=P:problem=miejscami źle podpisany tekst w źródle	!	!	!	!	!
!LO:TX:a:t=P:problem=błędne znaki przykluczowe E- A- D-	!	!	!	!	!	!	!LO:TX:a:t=P:problem=błędne znaki przykluczowe AA- F- E-	!	!	!	!	!	!	!	!	!
!LO:TX:a:t=Solo	!	!	!	!	!	!	!LO:TX:a:t=15	!	!	!	!LO:TX:a:t=15	!	!	!	!	!LO:TX:a:t=Solo
!LO:TX:a:rj:t=Andante	!	!	!	!LO:DY:t=for	!	!	!LO:TX:a:rj:t=Andante	!	!LO:TX:a:i:t=Benedictus Tacet.	!LO:TX:a:i:t=Benedictus Tacet.	!LO:TX:a:t=Andantino	!	!LO:TX:t=P:problem=brak partii w źródle	!LO:TX:t=P:problem=brak partii w źródle	!	!LO:TX:a:rj:t=Adagio.
8E-\L	.	.	8g/L	f	8b-\L	.	2r	.	2ryy	2ryy	2r	.	2ryy	2ryy	8gg\L	8bb-\L
8E-\	.	.	8e-/J	.	8g\J	.	.	.	.	.	.	.	.	.	8ee-\J	8gg\J
8E-\	.	.	16r	.	16r	.	.	.	.	.	.	.	.	.	4r	4r
.	.	.	16g/LL	.	16ee-\LL	.	.	.	.	.	.	.	.	.	.	.
8E-\J	.	.	16f/	.	16dd\	.	.	.	.	.	.	.	.	.	.	.
.	.	.	16g/JJ	.	16ee-\JJ	.	.	.	.	.	.	.	.	.	.	.
=2	=2	=2	=2	=2	=2	=2	=2	=2	=2	=2	=2	=2	=2	=2	=2	=2
8E-\L	6 4	.	8a-/L	.	8cc\L	.	2r	.	2ryy	2ryy	2r	.	2ryy	2ryy	8aa-\L	8ccc\L
8E-\	.	.	8c/J	.	8a-\J	.	.	.	.	.	.	.	.	.	8cc\J	8aa-\J
8E-\	.	.	16r	.	16r	.	.	.	.	.	.	.	.	.	4r	4r
.	.	.	16cc\LL	.	16ee-\LL	.	.	.	.	.	.	.	.	.	.	.
8E-\J	.	.	16b-\	.	16dd\	.	.	.	.	.	.	.	.	.	.	.
.	.	.	16a-\JJ	.	16cc\JJ	.	.	.	.	.	.	.	.	.	.	.
*Xtremolo	*	*	*	*	*	*	*	*	*	*	*	*	*	*	*	*
!	!	!	!	!	!LO:LB:g=original	!	!	!	!	!	!	!	!	!	!	!
=3	=3	=3	=3	=3	=3	=3	=3	=3	=3	=3	=3	=3	=3	=3	=3	=3
8E-\L	.	.	16g/LL	.	16b-\LL	.	2r	.	2ryy	2ryy	2r	.	2ryy	2ryy	16gg\LL	16bb-\LL
.	.	.	16a-/	.	16cc\	.	.	.	.	.	.	.	.	.	16aa-\	(16ccc\
8E-\J	.	.	16e-/	.	16g\	.	.	.	.	.	.	.	.	.	16ee-\	16gg\
.	.	.	16g/JJ	.	16b-\JJ	.	.	.	.	.	.	.	.	.	16gg\JJ	16bb-\JJ)
!LO:TX:a:t=P:problem=mixed beam	!	!	!	!	!	!	!	!	!	!	!	!	!	!	!	!
8F\L	6	.	8g/L	.	8b-/L	.	.	.	.	.	.	.	.	.	8gg\L	8bb-\L
8FF/J	7	.	8f/J	.	8a-/J	.	.	.	.	.	.	.	.	.	8ff\J	8aa-\J
!	!	!	!LO:LB:g=original	!	!	!	!	!	!	!	!	!	!	!	!	!
=4	=4	=4	=4	=4	=4	=4	=4	=4	=4	=4	=4	=4	=4	=4	=4	=4
*tremolo	*	*	*	*	*	*	*	*	*	*	*	*	*	*	*	*
8E-\L	.	.	16e-/LL	.	16g/LL	.	2r	.	2ryy	2ryy	2r	.	2ryy	2ryy	16ee-\LL	(16gg\LL
.	.	.	16d/	.	16f/	.	.	.	.	.	.	.	.	.	16dd\	16ff\
8E-\	.	.	16f/	.	16a-/	.	.	.	.	.	.	.	.	.	16ff\	16aa-\
.	.	.	16e-/JJ	.	16g/JJ	.	.	.	.	.	.	.	.	.	16ee-\JJ	16gg\JJ)
8E-\	.	.	8g/L	.	8b-/L	.	.	.	.	.	.	.	.	.	8gg\L	8bb-\L
8E-\J	.	.	16f/L	.	16a-/L	.	.	.	.	.	.	.	.	.	16ff\L	16aa-\L
.	.	.	16e-/JJ	.	16g/JJ	.	.	.	.	.	.	.	.	.	16ee-\JJ	16gg\JJ
=5	=5	=5	=5	=5	=5	=5	=5	=5	=5	=5	=5	=5	=5	=5	=5	=5
.	.	.	.	.	8qqa-/	.	.	.	.	.	.	.	.	.	.	.
8BB-/L	.	.	4e-/	.	4g/	.	2r	.	2ryy	2ryy	2r	.	2ryy	2ryy	4ee-\	4gg\
8BB-/	.	.	.	.	.	.	.	.	.	.	.	.	.	.	.	.
8BB-/	.	.	4d/	.	4f/	.	.	.	.	.	.	.	.	.	4dd\	4ff\
8BB-/J	.	.	.	.	.	.	.	.	.	.	.	.	.	.	.	.
!	!	!	!	!	!	!	!	!	!	!	!	!	!	!	!LO:LB:g=original	!LO:LB:g=original
=6	=6	=6	=6	=6	=6	=6	=6	=6	=6	=6	=6	=6	=6	=6	=6	=6
8E-\L	.	.	8.G/L	.	8.e-/L	.	2r	.	2ryy	2ryy	2r	.	2ryy	2ryy	8.g\L	8.ee-\L
8E-\	.	.	.	.	.	.	.	.	.	.	.	.	.	.	.	.
.	.	.	16A-/Jk	.	16f/Jk	.	.	.	.	.	.	.	.	.	16a-\Jk	16ff\Jk
8E-\	.	.	16e-/LL	.	16g/LL	.	.	.	.	.	.	.	.	.	16ee-\LL	16gg\LL
.	.	.	16d/	.	16f/	.	.	.	.	.	.	.	.	.	16dd\	16ff\
8E-\J	.	.	16f/	.	16a-/	.	.	.	.	.	.	.	.	.	16ff\	16aa-\
.	.	.	16e-/JJ	.	16g/JJ	.	.	.	.	.	.	.	.	.	16ee-\JJ	16gg\JJ
*Xtremolo	*	*	*	*	*	*	*	*	*	*	*	*	*	*	*	*
=7	=7	=7	=7	=7	=7	=7	=7	=7	=7	=7	=7	=7	=7	=7	=7	=7
8E-\L	.	.	8.a-/L	.	16cc/LL	.	2r	.	2ryy	2ryy	2r	.	2ryy	2ryy	8aa-\L	16ccc\LL
.	.	.	.	.	16b-/J	.	.	.	.	.	.	.	.	.	.	16bb-\J
8E-\J	.	.	.	.	8.b-/J	.	.	.	.	.	.	.	.	.	16gg\L	8bb-\J
.	.	.	32g/LL	.	.	.	.	.	.	.	.	.	.	.	16gg\JJ	.
.	.	.	32f/JJJ	.	.	.	.	.	.	.	.	.	.	.	.	.
8BB-\L	.	.	8f/L	.	.	.	.	.	.	.	.	.	.	.	16ff\LL	16aa-\LL
.	.	.	.	.	16a-/LL	.	.	.	.	.	.	.	.	.	16ee-\J	16gg\J
!	!	!	!	!	!	!	!	!	!	!	!	!	!	!	!LO:N:vis=16	!LO:N:vis=16
8BB-\J	.	.	16e-/L	.	16g/	.	.	.	.	.	.	.	.	.	8dd\J	8ff\J
.	.	.	16d/JJ	.	16f/JJ	.	.	.	.	.	.	.	.	.	.	.
=8	=8	=8	=8	=8	=8	=8	=8	=8	=8	=8	=8	=8	=8	=8	=8	=8
*tremolo	*	*	*	*	*	*	*	*	*	*	*	*	*	*	*	*
8E-\L	.	.	16e-/LL	.	16g/LL	.	2r	.	2ryy	2ryy	2r	.	2ryy	2ryy	16ee-\LL	16gg\LL
.	.	.	16d/	.	16f/	.	.	.	.	.	.	.	.	.	16dd\	16ff\
8E-\	.	.	16f/	.	16a-/	.	.	.	.	.	.	.	.	.	16ff\	16aa-\
.	.	.	16e-/JJ	.	16g/JJ	.	.	.	.	.	.	.	.	.	16ee-\JJ	16gg\JJ
8E-\	.	.	16g/LL	.	16b-/LL	.	.	.	.	.	.	.	.	.	16gg\LL	16bb-\LL
.	.	.	16f/	.	16a-/	.	.	.	.	.	.	.	.	.	16ff\	16aa-\
8E-\J	.	.	16a-/	.	16cc/	.	.	.	.	.	.	.	.	.	16aa-\	16ccc\
.	.	.	16g/JJ	.	16b-/JJ	.	.	.	.	.	.	.	.	.	16gg\JJ	16gg\JJ
*Xtremolo	*	*	*	*	*	*	*	*	*	*	*	*	*	*	*	*
!LO:LB:g=original	!	!	!	!	!LO:LB:g=original	!	!	!	!	!	!	!	!	!	!	!
=9	=9	=9	=9	=9	=9	=9	=9	=9	=9	=9	=9	=9	=9	=9	=9	=9
8BB-\L	7	.	16g/LL	.	16b-/LL	.	2r	.	2ryy	2ryy	2r	.	2ryy	2ryy	16gg\LL	16bb-\LL
.	.	.	16f/JJ	.	16a-/JJ	.	.	.	.	.	.	.	.	.	16ff\JJ	16aa-\JJ
8BB-\	.	.	4f/	.	4a-/	.	.	.	.	.	.	.	.	.	4ff\	4aa-\
8BB-\	.	.	.	.	.	.	.	.	.	.	.	.	.	.	.	.
8E-\J	.	.	8e-/	.	8g/	.	.	.	.	.	.	.	.	.	8ee-\	8gg\
=10	=10	=10	=10	=10	=10	=10	=10	=10	=10	=10	=10	=10	=10	=10	=10	=10
!LO:TX:a:t=P:problem=mixed beam	!	!	!	!	!	!	!	!	!	!	!	!	!	!	!	!
8A-\L	6	.	8A-/L	.	8f/L	.	2r	.	2ryy	2ryy	2r	.	2ryy	2ryy	8a-\L	8ff\L
8A-\	.	.	16c/L	.	16a-/L	.	.	.	.	.	.	.	.	.	16cc\L	16aa-\L
.	.	.	16A-/JJ	.	16f/JJ	.	.	.	.	.	.	.	.	.	16a-\JJ	16ff\JJ
8B-\	4	.	8G/L	.	8e-/L	.	.	.	.	.	.	.	.	.	8g\L	8ee-\L
8BB-/J	3	.	8A-/J	.	8d/J	.	.	.	.	.	.	.	.	.	8f\J	8dd\J
!	!	!	!LO:LB:g=original	!	!	!	!	!	!	!	!	!	!	!	!	!
=11	=11	=11	=11	=11	=11	=11	=11	=11	=11	=11	=11	=11	=11	=11	=11	=11
*	*	*	*	*	*	*	*	*	*	*	*	*	*	*	*2\right	*
!	!	!	!LO:TX:a:t=P:problem=mixed beam	!	!LO:TX:a:t=P:problem=mixed beam	!	!	!	!	!	!	!	!	!	!LO:N:vis=2.	!
8E-\L	.	.	16B-/LL	.	16e-/LL	.	2r	.	2ryy	2ryy	2r	.	2ryy	2ryy	2b-\	8ee-\L
.	.	.	16b-\	.	16gg\	.	.	.	.	.	.	.	.	.	.	.
8E-\J	.	.	16b-\	.	16gg\	.	.	.	.	.	.	.	.	.	.	8gg\J
.	.	.	16b-\JJ	.	16gg\JJ	.	.	.	.	.	.	.	.	.	.	.
*	*	*	*tremolo	*	*	*	*	*	*	*	*	*	*	*	*	*
!LO:TX:a:t=P:problem=mixed beam	!	!	!	!	!	!	!	!	!	!	!	!	!	!	!	!
8F\L	.	.	16b-\LL	.	(32aa-\LLL	.	.	.	.	.	.	.	.	.	.	4aa-\
.	.	.	.	.	32gg\	.	.	.	.	.	.	.	.	.	.	.
.	.	.	16b-\	.	32ff\	.	.	.	.	.	.	.	.	.	.	.
.	.	.	.	.	32ee-\	.	.	.	.	.	.	.	.	.	.	.
8FF/J	.	.	16b-\	.	32dd\	.	.	.	.	.	.	.	.	.	.	.
.	.	.	.	.	32cc\)	.	.	.	.	.	.	.	.	.	.	.
.	.	.	16b-\JJ	.	32b-\	.	.	.	.	.	.	.	.	.	.	.
.	.	.	.	.	32a-\JJJ	.	.	.	.	.	.	.	.	.	.	.
=12	=12	=12	=12	=12	=12	=12	=12	=12	=12	=12	=12	=12	=12	=12	=12	=12
!	!	!	!	!	!LO:TX:a:t=P:problem=mixed beam	!	!	!	!	!	!	!	!	!	!	!
8E-\L	.	.	16b-\LL	.	16g/LL	.	2r	.	2ryy	2ryy	2r	.	2ryy	2ryy	2b-\	4gg\
.	.	.	16b-\	.	16gg\	.	.	.	.	.	.	.	.	.	.	.
8E-\J	.	.	16b-\	.	16gg\	.	.	.	.	.	.	.	.	.	.	.
.	.	.	16b-\	.	16gg\JJ	.	.	.	.	.	.	.	.	.	.	.
8F\L	.	.	16b-\	.	(32aa-\LLL	.	.	.	.	.	.	.	.	.	.	4aa-\
.	.	.	.	.	32gg\	.	.	.	.	.	.	.	.	.	.	.
.	.	.	16b-\	.	32ff\	.	.	.	.	.	.	.	.	.	.	.
.	.	.	.	.	32ee-\JJJ	.	.	.	.	.	.	.	.	.	.	.
8BB-\J	.	.	16b-\	.	32dd\LLL	.	.	.	.	.	.	.	.	.	.	.
.	.	.	.	.	32cc\)	.	.	.	.	.	.	.	.	.	.	.
.	.	.	16b-\JJ	.	32b-\	.	.	.	.	.	.	.	.	.	.	.
.	.	.	.	.	32a-\JJJ	.	.	.	.	.	.	.	.	.	.	.
=13	=13	=13	=13	=13	=13	=13	=13	=13	=13	=13	=13	=13	=13	=13	=13	=13
!	!	!	!	!	!LO:TX:a:t=P:problem=mixed beam	!	!	!	!	!	!	!	!	!	!	!
8E-\L	.	.	16b-/LL	.	16g/KL	.	2r	.	2ryy	2ryy	2r	.	2ryy	2ryy	4b-\	4gg\
.	.	.	16b-/	.	8bb-\	.	.	.	.	.	.	.	.	.	.	.
8E-\	.	.	16b-/	.	.	.	.	.	.	.	.	.	.	.	.	.
.	.	.	16b-/	.	8gg\	.	.	.	.	.	.	.	.	.	.	.
8E-\	.	.	16b-/	.	.	.	.	.	.	.	.	.	.	.	4r	4r
.	.	.	16b-/	.	8ee-\	.	.	.	.	.	.	.	.	.	.	.
8G\J	.	.	16b-/	.	.	.	.	.	.	.	.	.	.	.	.	.
.	.	.	16b-/JJ	.	16dd-X\Jk	.	.	.	.	.	.	.	.	.	.	.
*	*	*	*Xtremolo	*	*	*	*	*	*	*	*	*	*	*	*	*
=14	=14	=14	=14	=14	=14	=14	=14	=14	=14	=14	=14	=14	=14	=14	=14	=14
!LO:TX:a:t=P:problem=mixed beam	!	!	!	!	!	!	!	!	!	!	!	!	!	!	!	!
8A-\L	.	.	8.a-/L	.	8.cc/L	.	2r	.	2ryy	2ryy	2r	.	2ryy	2ryy	8.aa-\L	8.ccc\L
8A-\	.	.	.	.	.	.	.	.	.	.	.	.	.	.	.	.
.	.	.	32g/LL	.	32b-/LL	.	.	.	.	.	.	.	.	.	32gg\LL	32bb-\LL
.	.	.	32f/JJJ	.	32a-/JJJ	.	.	.	.	.	.	.	.	.	32ff\JJJ	32aa-\JJJ
8B-\	.	.	8e-/L	.	8g/L	.	.	.	.	.	.	.	.	.	8ee-\L	8gg\L
8BB-/J	.	.	8d/J	.	8f/J	.	.	.	.	.	.	.	.	.	8dd\J	8ff\J
!	!	!	!	!	!	!	!	!	!	!	!	!	!	!	!LO:LB:g=original	!
=15	=15	=15	=15	=15	=15	=15	=15	=15	=15	=15	=15	=15	=15	=15	=15	=15
8E-\L	.	.	8G/L	.	8e-/L	.	2r	.	2ryy	2ryy	2r	.	2ryy	2ryy	8g/L	8ee-\L
8BB-\J	.	.	8G/J	.	8e-/J	.	.	.	.	.	.	.	.	.	8g/J	8ee-\J
!	!	!	!	!	!LO:TX:b:t=Vertatur	!	!	!	!	!	!	!	!	!	!	!
4EE-/	.	.	4G/	.	4e-/	.	.	.	.	.	.	.	.	.	4g/	4ee-\
!	!	!	!	!	!LO:PB:g=original	!	!	!	!	!	!	!	!	!	!	!LO:PB:g=original
=16	=16	=16	=16	=16	=16	=16	=16	=16	=16	=16	=16	=16	=16	=16	=16	=16
*tremolo	*	*	*tremolo	*	*	*	*	*	*	*	*	*	*	*	*	*
!	!	!	!	!	!	!	!	!	!	!	!LO:TX:a:t=Solo:color=grey	!	!	!	!LO:TX:a:t=3	!LO:TX:a:t=3
8E-\L	.	.	8G/L	p	8g/L	.	8G\L	Be-	2ryy	2ryy	8b-\L	Be-	2ryy	2ryy	1r	1r
8E-\	.	.	8G/	.	8g/	.	8E-\J	.	.	.	8g\J	.	.	.	.	.
8E-\	.	.	8G/	.	8g/	.	8r	.	.	.	8r	.	.	.	.	.
8E-\J	.	.	8G/J	.	8g/J	.	8G\	-ne-	.	.	8ee-\	-ne-	.	.	.	.
=17	=17	=17	=17	=17	=17	=17	=17	=17	=17	=17	=17	=17	=17	=17	=17	=17
*	*	*	*	*	*tremolo	*	*	*	*	*	*	*	*	*	*	*
8E-\L	6 4	.	8c/L	.	8a-/L	.	8A-\L	-di-	2ryy	2ryy	8cc\L	-di-	2ryy	2ryy	.	.
8E-\	.	.	8c/	.	8a-/	.	8C\J	-ctus	.	.	8a-\J	-ctus	.	.	.	.
8E-\	.	.	8c/	.	8a-/	.	8r	.	.	.	8r	.	.	.	.	.
8E-\J	.	.	8c/J	.	8a-/J	.	8A-\	qui-	.	.	8cc\	qui	.	.	.	.
*Xtremolo	*	*	*Xtremolo	*	*Xtremolo	*	*	*	*	*	*	*	*	*	*	*
=18	=18	=18	=18	=18	=18	=18	=18	=18	=18	=18	=18	=18	=18	=18	=18	=18
!LO:TX:a:t=P:problem=mixed beam	!	!	!	!	!	!	!	!	!	!	!	!	!	!	!	!
8E-\L	.	.	8B-/L	.	8g/L	.	8G\L	-ve-	2ryy	2ryy	8b-\L	ve-	2ryy	2ryy	2r	2r
8E-\	.	.	8e-/	.	8g/	.	16F\L	.	.	.	16a-\L	.	.	.	.	.
.	.	.	.	.	.	.	16E-\JJ	.	.	.	16g\JJ	.	.	.	.	.
!	!	!	!	!	!	!	!	!	!	!	!LO:TX:b:t=P:problem=zbędna sylaba "ni"	!	!	!	!	!
8F\	.	.	8e-/	.	8a-/	.	4F\	.	.	.	4a-\	-ni-	.	.	.	.
8FF/J	.	.	8d/J	.	8a-/J	.	.	.	.	.	.	.	.	.	.	.
=19	=19	=19	=19	=19	=19	=19	=19	=19	=19	=19	=19	=19	=19	=19	=19	=19
*	*	*	*2\right	*	*	*	*	*	*	*	*	*	*	*	*	*
*	*	*	*tremolo	*	*	*	*	*	*	*	*	*	*	*	*	*
!LO:TX:a:t=P:problem=mixed beam	!	!	!	!	!LO:TX:a:t=P:problem=mixed beam	!	!	!	!	!	!	!	!	!	!	!
8E-\L	.	.	8b-\L	.	16g/LL	.	4E-\	-nit	2ryy	2ryy	4g\	-nit	2ryy	2ryy	2b-\	4gg\
.	.	.	.	.	16gg\	.	.	.	.	.	.	.	.	.	.	.
8E-\	.	.	8b-\	.	16gg\	.	.	.	.	.	.	.	.	.	.	.
.	.	.	.	.	16gg\JJ	.	.	.	.	.	.	.	.	.	.	.
8F\	.	.	8b-\	.	32aa-\LLL	.	4r	.	.	.	4r	.	.	.	.	4aa-\
.	.	.	.	.	32gg\	.	.	.	.	.	.	.	.	.	.	.
.	.	.	.	.	32ff\	.	.	.	.	.	.	.	.	.	.	.
.	.	.	.	.	32ee-\	.	.	.	.	.	.	.	.	.	.	.
8FF/J	.	.	8b-\J	.	32dd\	.	.	.	.	.	.	.	.	.	.	.
.	.	.	.	.	32cc\	.	.	.	.	.	.	.	.	.	.	.
.	.	.	.	.	32b-\	.	.	.	.	.	.	.	.	.	.	.
.	.	.	.	.	32a-\JJJ	.	.	.	.	.	.	.	.	.	.	.
!LO:LB:g=original	!	!	!	!	!	!	!	!	!	!	!LO:LB:g=original	!	!	!	!	!
=20	=20	=20	=20	=20	=20	=20	=20	=20	=20	=20	=20	=20	=20	=20	=20	=20
!LO:TX:a:t=P:problem=mixed beam	!	!	!	!	!	!	!LO:TX:a:t=3	!	!	!	!LO:TX:a:t=1.	!	!	!	!	!
8E-\L	.	.	8b-\L	.	16g\LL	.	1r	.	2ryy	2ryy	2r	.	2ryy	2ryy	2b-\	4gg\
.	.	.	.	.	16gg\	.	.	.	.	.	.	.	.	.	.	.
8E-\	.	.	8b-\	.	16gg\	.	.	.	.	.	.	.	.	.	.	.
.	.	.	.	.	16gg\JJ	.	.	.	.	.	.	.	.	.	.	.
8F\	.	.	8b-\	.	32aa-\LLL	.	.	.	.	.	.	.	.	.	.	4aa-\
.	.	.	.	.	32gg\	.	.	.	.	.	.	.	.	.	.	.
.	.	.	.	.	32ff\	.	.	.	.	.	.	.	.	.	.	.
.	.	.	.	.	32ee-\	.	.	.	.	.	.	.	.	.	.	.
8FF/J	.	.	8b-\J	.	32dd\	.	.	.	.	.	.	.	.	.	.	.
.	.	.	.	.	32cc\	.	.	.	.	.	.	.	.	.	.	.
.	.	.	.	.	32b-\	.	.	.	.	.	.	.	.	.	.	.
.	.	.	.	.	32a-\JJJ	.	.	.	.	.	.	.	.	.	.	.
=21	=21	=21	=21	=21	=21	=21	=21	=21	=21	=21	=21	=21	=21	=21	=21	=21
*tremolo	*	*	*	*	*tremolo	*	*	*	*	*	*	*	*	*	*	*
!	!	!	!	!	!	!	!	!	!	!	!	!	!	!	!LO:TX:a:t=2	!LO:TX:a:t=2
8E-\L	.	.	8B-/L	.	8g/L	.	.	.	2ryy	2ryy	4e-/	Be-	2ryy	2ryy	1r	1r
8E-\	.	.	8B-/	.	8g/	.	.	.	.	.	.	.	.	.	.	.
8E-\	.	.	8B-/	.	8g/	.	.	.	.	.	8ee-\L	-ne-	.	.	.	.
8E-\J	.	.	8B-/J	.	8g/J	.	.	.	.	.	8gg\J	.	.	.	.	.
*Xtremolo	*	*	*Xtremolo	*	*Xtremolo	*	*	*	*	*	*	*	*	*	*	*
=22	=22	=22	=22	=22	=22	=22	=22	=22	=22	=22	=22	=22	=22	=22	=22	=22
8D\L	.	.	4r	.	8r	.	2r	.	2ryy	2ryy	16ff\LL	-di-	2ryy	2ryy	.	.
.	.	.	.	.	.	.	.	.	.	.	16dd\JJ	.	.	.	.	.
8D\J	.	.	.	.	8b-/L	.	.	.	.	.	16cc\LL	-ctus	.	.	.	.
.	.	.	.	.	.	.	.	.	.	.	16b-\JJ	.	.	.	.	.
8C/L	.	.	8f/L	.	8b-/	.	.	.	.	.	8.ee-\L	qui	.	.	.	.
8FF/J	7	.	8en/J	.	8an/J	.	.	.	.	.	.	.	.	.	.	.
.	.	.	.	.	.	.	.	.	.	.	16ee-\Jk	ve-	.	.	.	.
!	!	!	!LO:LB:g=original	!	!	!	!	!	!	!	!	!	!	!	!	!
=23	=23	=23	=23	=23	=23	=23	=23	=23	=23	=23	=23	=23	=23	=23	=23	=23
4BB-/	.	.	8d/	.	8b-/	.	8r	.	2ryy	2ryy	8dd\	.	2ryy	2ryy	8dd\	8bb-\
.	.	.	4d/	.	4f/	.	4d\	Be-	.	.	4ff\	.	.	.	4dd\	4ff\
8r	.	.	.	.	.	.	.	.	.	.	.	.	.	.	.	.
8F\	.	.	8c/	.	8e-/	.	8c\	-ne-	.	.	8ee-\	-nit	.	.	8cc\	8ee-\
!	!	!	!	!	!LO:LB:g=original	!	!LO:LB:g=original	!	!	!	!	!	!	!	!	!
=24	=24	=24	=24	=24	=24	=24	=24	=24	=24	=24	=24	=24	=24	=24	=24	=24
!LO:TX:t=P:problem=wykreślony takt	!	!	!LO:TX:a:t=P:problem=takt zapisany repetycją	!	!	!	!	!LO:MO:mod=-dic-	!	!	!	!	!	!	!	!
8BB-/	.	.	8d/yy	.	8d/	.	8B-\	-dit-	2ryy	2ryy	8dd\	in	2ryy	2ryy	8b-\	8dd\
8r	.	.	4d/yy	.	4f/	.	4d\	.	.	.	4ff\	.	.	.	4dd\	4ff\
8r	.	.	.	.	.	.	.	.	.	.	.	.	.	.	.	.
8F\	.	.	8c/yy	.	8e-/	.	8c\	.	.	.	8ee-\	.	.	.	8cc\	8ee-\
=25	=25	=25	=25	=25	=25	=25	=25	=25	=25	=25	=25	=25	=25	=25	=25	=25
!	!	!	!	!	!LO:TX:a:t=P:problem=mixed beam	!	!	!	!	!	!	!	!	!	!	!
.	.	.	.	.	.	.	.	.	.	.	.	.	.	.	8qqcc/	.
*	*	*	*tremolo	*	*	*	*	*	*	*	*	*	*	*	*	*
!	!	!	!	!	!	!	!	!LO:MO:mod=--tus	!	!	!	!	!	!	!	!
8BB-/	.	.	8d/L	.	8d/L	.	8B-\	-us	2ryy	2ryy	8dd\L	no-	2ryy	2ryy	8b-\	4dd\
8r	.	.	8d/	.	8b-\	.	8r	.	.	.	8b-\J	.	.	.	8r	.
4r	.	.	8d/	.	8b-\	.	4r	.	.	.	8b-\L	-mi-	.	.	4r	4r
.	.	.	8d/J	.	8b-\J	.	.	.	.	.	8b-\J	-ne	.	.	.	.
*	*	*	*Xtremolo	*	*	*	*	*	*	*	*	*	*	*	*	*
=26	=26	=26	=26	=26	=26	=26	=26	=26	=26	=26	=26	=26	=26	=26	=26	=26
!	!	!	!	!	!	!	!LO:TX:a:t=2	!	!	!	!	!	!	!	!LO:TX:a:t=2	!LO:TX:a:t=2
8G\L	n	.	8d/L	.	(16bn\LL	.	1r	.	2ryy	2ryy	4bn\	Do-	2ryy	2ryy	1r	1r
.	.	.	.	.	16dd\	.	.	.	.	.	.	.	.	.	.	.
8F\	+4r	.	8g/	.	16gg\	.	.	.	.	.	.	.	.	.	.	.
.	.	.	.	.	16b\JJ)	.	.	.	.	.	.	.	.	.	.	.
8E-\J	6	.	8g/J	.	8cc\	.	.	.	.	.	8cc\L	.	.	.	.	.
8r	.	.	8r	.	8r	.	.	.	.	.	16ee-\L	.	.	.	.	.
.	.	.	.	.	.	.	.	.	.	.	16cc\JJ	.	.	.	.	.
=27	=27	=27	=27	=27	=27	=27	=27	=27	=27	=27	=27	=27	=27	=27	=27	=27
8F\L	n	.	8c/L	.	16an\LL	.	.	.	2ryy	2ryy	4an\	-mi-	2ryy	2ryy	.	.
.	.	.	.	.	16cc\	.	.	.	.	.	.	.	.	.	.	.
8E-\	+4r	.	8c/	.	16ff\	.	.	.	.	.	.	.	.	.	.	.
.	.	.	.	.	16a\JJ	.	.	.	.	.	.	.	.	.	.	.
8D\J	6	.	8e-/J	.	16b-\LL	.	.	.	.	.	8b-\	-ni:	.	.	.	.
.	.	.	.	.	16dd\	.	.	.	.	.	.	.	.	.	.	.
8r	.	.	8r	.	16dd\	.	.	.	.	.	8r	.	.	.	.	.
.	.	.	.	.	16ff\JJ	.	.	.	.	.	.	.	.	.	.	.
=28	=28	=28	=28	=28	=28	=28	=28	=28	=28	=28	=28	=28	=28	=28	=28	=28
*tremolo	*	*	*	*	*	*	*	*	*	*	*	*	*	*	*	*
8BB-/L	.	.	8.d/L	.	8.f/L	.	8.d\L	ve-	2ryy	2ryy	8.ff\L	ve-	2ryy	2ryy	8.dd\L	8.ff\L
8BB-/	.	.	.	.	.	.	.	.	.	.	.	.	.	.	.	.
.	.	.	16c/Jk	.	16e-/Jk	.	16c\Jk	.	.	.	16ee-\Jk	.	.	.	16cc\Jk	16ee-\Jk
8BB-/	.	.	16B-/LL	.	16d/LL	.	8B-\	-nit	.	.	8dd\	-nit	.	.	16b-\LL	16dd\LL
.	.	.	16d/	.	16b-/	.	.	.	.	.	.	.	.	.	16dd\	16bb-\
8BB-/J	.	.	16c/	.	16a-/	.	8r	.	.	.	8r	.	.	.	16cc\	16aa\
.	.	.	16e-/JJ	.	16g/JJ	.	.	.	.	.	.	.	.	.	16ee-\JJ	16gg\JJ
!	!	!	!	!	!	!	!	!	!	!	!LO:LB:g=original	!	!	!	!	!
=29	=29	=29	=29	=29	=29	=29	=29	=29	=29	=29	=29	=29	=29	=29	=29	=29
*	*	*	*	*	*	*	*	*	*	*	*	*ij	*	*	*	*
8BB-/L	.	.	8.d/L	.	8.f/L	.	8.d\L	qui	2ryy	2ryy	8.ff\L	ve-	2ryy	2ryy	4dd\	8.ff\L
8BB-/	.	.	.	.	.	.	.	.	.	.	.	.	.	.	.	.
.	.	.	16c/K	.	16e-/Jk	.	16c\Jk	.	.	.	16ee-\Jk	.	.	.	.	16ee-\K
8BB-/	.	.	8B-/	.	8d/L	.	8B-\L	ve-	.	.	8dd\L	-nit	.	.	16cc\LL	8dd\
*	*	*	*	*	*	*	*	*	*	*	*	*Xij	*	*	*	*
.	.	.	.	.	.	.	.	.	.	.	.	.	.	.	16b-\J	.
8BB-/J	.	.	8f/J	.	8b-/J	.	8D\J	.	.	.	8b-\J	.	.	.	8dd\J	8bb-\J
*Xtremolo	*	*	*	*	*	*	*	*	*	*	*	*	*	*	*	*
=30	=30	=30	=30	=30	=30	=30	=30	=30	=30	=30	=30	=30	=30	=30	=30	=30
!LO:TX:a:t=P:problem=mixed beam	!	!	!	!	!	!	!	!	!	!	!	!	!	!	!	!
8E-\L	.	.	8g/L	.	8cc\L	.	8E-\	.	2ryy	2ryy	8cc\L	qui	2ryy	2ryy	4ee-\	4ccc\
8E-\	.	.	16f/L	.	16ee-\L	.	8E-\	-nit	.	.	16ee-\L	.	.	.	.	.
.	.	.	16e-/JJ	.	16cc\JJ	.	.	.	.	.	16cc\JJ	.	.	.	.	.
8F\	.	.	8d/L	.	8b-\L	.	4F\	.	.	.	8b-\L	ve-	.	.	8dd\L	8bb-\L
8FF/J	.	.	8c/J	.	8an\J	.	.	.	.	.	8an\J	.	.	.	8cc\J	8aa\J
!LO:LB:g=original	!	!	!	!	!	!	!	!	!	!	!	!	!	!	!	!
=31	=31	=31	=31	=31	=31	=31	=31	=31	=31	=31	=31	=31	=31	=31	=31	=31
8BB-/	.	.	8d/	.	8b-\	.	8BB-/	in	2ryy	2ryy	8b-\	-nit	2ryy	2ryy	4dd\	4bb-\
8r	.	.	4f/	.	4dd\	.	4F\	.	.	.	4dd\	.	.	.	.	.
8r	.	.	.	.	.	.	.	.	.	.	.	.	.	.	4r	4r
!	!	!	!LO:TX:b:i:t=Vertate	!	!	!	!	!	!	!	!	!	!	!	!	!
8F\	.	.	8e-/	.	8cc\	.	8E-\	no-	.	.	8ccn\	.	.	.	.	.
!	!	!	!LO:PB:g=original	!	!	!	!	!	!	!	!	!	!	!	!LO:LB:g=original	!
=32	=32	=32	=32	=32	=32	=32	=32	=32	=32	=32	=32	=32	=32	=32	=32	=32
!	!	!	!	!	!	!	!	!	!	!	!	!	!	!	!LO:TX:a:t=6	!LO:TX:a:t=6
8BB-/	.	.	8d/	.	8b-\	.	8D\	-mi-	2ryy	2ryy	8b-\	in	2ryy	2ryy	0r	0r
8r	.	.	4f/	.	4dd\	.	4F\	-ne	.	.	4dd\	.	.	.	.	.
8r	.	.	.	.	.	.	.	.	.	.	.	.	.	.	.	.
8F\	.	.	8e-/	.	8cc\	.	8E-\	.	.	.	8ccn\	no-	.	.	.	.
!	!	!	!	!	!LO:LB:g=original	!	!	!	!	!	!	!	!	!	!	!
=33	=33	=33	=33	=33	=33	=33	=33	=33	=33	=33	=33	=33	=33	=33	=33	=33
*	*	*	*	*	*2\right	*	*	*	*	*	*	*	*	*	*	*
*	*	*	*	*	*tremolo	*	*	*ij	*	*	*	*	*	*	*	*
4BB-/	.	.	16d/LL	.	16b-\LL	.	8D\L	in	2ryy	2ryy	8b-\L	-mi-	2ryy	2ryy	.	.
.	.	.	16B-/	.	16b-\	.	.	.	.	.	.	.	.	.	.	.
.	.	.	16B-/	.	16b-\	.	8B-\	no-	.	.	8b-\J	.	.	.	.	.
.	.	.	16B-/JJ	.	16b-\	.	.	.	.	.	.	.	.	.	.	.
*	*	*	*tremolo	*	*	*	*	*	*	*	*	*	*	*	*	*
4r	.	.	16B-/LL	.	16b-\	.	8B-\	-mi-	.	.	8b-\L	-ne	.	.	.	.
.	.	.	16B-/	.	16b-\	.	.	.	.	.	.	.	.	.	.	.
.	.	.	16B-/	.	16b-\	.	8B-\J	-ne	.	.	8b-\J	.	.	.	.	.
*	*	*	*	*	*	*	*	*Xij	*	*	*	*	*	*	*	*
.	.	.	16B-/JJ	.	16b-\JJ	.	.	.	.	.	.	.	.	.	.	.
*	*	*	*Xtremolo	*	*	*	*	*	*	*	*	*	*	*	*	*
=34	=34	=34	=34	=34	=34	=34	=34	=34	=34	=34	=34	=34	=34	=34	=34	=34
8E-\L	.	.	16d/LL	.	16b-\LL	.	4G\	.	2ryy	2ryy	8b-\L	Do-	2ryy	2ryy	.	.
.	.	.	16B-/	.	16b-\	.	.	.	.	.	.	.	.	.	.	.
8E-\	.	.	16B-/	.	16b-\	.	.	.	.	.	8g\J	.	.	.	.	.
.	.	.	16B-/JJ	.	16b-\	.	.	.	.	.	.	.	.	.	.	.
*	*	*	*tremolo	*	*	*	*	*	*	*	*	*	*	*	*	*
8E-\J	.	.	16B-/LL	.	16b-\	.	8E-\L	no-	.	.	8e-\L	-mi-	.	.	.	.
.	.	.	16B-/	.	16b-\	.	.	.	.	.	.	.	.	.	.	.
8r	.	.	16B-/	.	16b-\	.	8B-\J	.	.	.	8a-\J	.	.	.	.	.
.	.	.	16B-/JJ	.	16b-\JJ	.	.	.	.	.	.	.	.	.	.	.
=35	=35	=35	=35	=35	=35	=35	=35	=35	=35	=35	=35	=35	=35	=35	=35	=35
8E-\L	.	.	16B-/LL	.	16b-\LL	.	4G\	-mi-	2ryy	2ryy	4g/	-ni	2ryy	2ryy	.	.
.	.	.	16B-/	.	16b-\	.	.	.	.	.	.	.	.	.	.	.
8E-\	.	.	16B-/	.	16b-\	.	.	.	.	.	.	.	.	.	.	.
.	.	.	16B-/JJ	.	16b-\JJ	.	.	.	.	.	.	.	.	.	.	.
*	*	*	*Xtremolo	*	*Xtremolo	*	*	*	*	*	*	*	*	*	*	*
8E-\J	.	.	16B-/LL	.	16b-\LL	.	8E-\L	-ne	.	.	8e-/L	in	.	.	.	.
.	.	.	16B-/	.	16b-\	.	.	.	.	.	.	.	.	.	.	.
8r	.	.	16c/	.	16cc\	.	8c\J	.	.	.	8cc/J	.	.	.	.	.
.	.	.	16c/JJ	.	16cc\JJ	.	.	.	.	.	.	.	.	.	.	.
!	!	!	!	!	!	!	!LO:LB:g=original	!	!	!	!	!	!	!	!	!
=36	=36	=36	=36	=36	=36	=36	=36	=36	=36	=36	=36	=36	=36	=36	=36	=36
*	*	*	*tremolo	*	*tremolo	*	*	*	*	*	*	*	*	*	*	*
8F\L	n	.	16c/LL	.	16cc\LL	.	4An\	Do-	2ryy	2ryy	4an\	no-	2ryy	2ryy	1r	1r
.	.	.	16c/	.	16cc\	.	.	.	.	.	.	.	.	.	.	.
8F\	.	.	16c/	.	16cc\	.	.	.	.	.	.	.	.	.	.	.
.	.	.	16c/	.	16cc\	.	.	.	.	.	.	.	.	.	.	.
8F\J	.	.	16c/	.	16cc\	.	8G\L	-mi-	.	.	8f\L	-mi-	.	.	.	.
.	.	.	16c/	.	16cc\	.	.	.	.	.	.	.	.	.	.	.
8r	.	.	16c/	.	16cc\	.	8c\J	.	.	.	8cc\J	.	.	.	.	.
.	.	.	16c/JJ	.	16cc\JJ	.	.	.	.	.	.	.	.	.	.	.
=37	=37	=37	=37	=37	=37	=37	=37	=37	=37	=37	=37	=37	=37	=37	=37	=37
8F\L	.	.	16c/LL	.	16cc\LL	.	4A-\	-ni	2ryy	2ryy	4a-\	.	2ryy	2ryy	.	.
.	.	.	16c/	.	16cc\	.	.	.	.	.	.	.	.	.	.	.
8F\	.	.	16c/	.	16cc\	.	.	.	.	.	.	.	.	.	.	.
.	.	.	16c/	.	16cc\	.	.	.	.	.	.	.	.	.	.	.
8F\J	.	.	16c/	.	16cc\	.	4F\	.	.	.	8g\	-ne	.	.	.	.
.	.	.	16c/	.	16cc\	.	.	.	.	.	.	.	.	.	.	.
8r	.	.	16c/	.	16cc\	.	.	.	.	.	8r	.	.	.	.	.
.	.	.	16c/JJ	.	16cc\JJ	.	.	.	.	.	.	.	.	.	.	.
*	*	*	*Xtremolo	*	*Xtremolo	*	*	*	*	*	*	*	*	*	*	*
!	!	!	!	!	!	!	!	!	!	!	!LO:LB:g=original	!	!	!	!	!
=38	=38	=38	=38	=38	=38	=38	=38	=38	=38	=38	=38	=38	=38	=38	=38	=38
*	*	*	*	*	*	*	*	*ij	*	*	*	*	*	*	*	*2\right
8A-\L	.	.	16f/KL	.	16f/KL	.	8An\L	Do-	2ryy	2ryy	8ee-\L	Do-	2ryy	2ryy	2f/	2ff\
.	.	.	8f/	.	8f/	.	.	.	.	.	.	.	.	.	.	.
8F\	.	.	.	.	.	.	8F\J	.	.	.	8cc\J	.	.	.	.	.
.	.	.	8f/	.	8f/	.	.	.	.	.	.	.	.	.	.	.
8B-\	.	.	.	.	.	.	8B-\L	-mi-	.	.	8dd\L	-mi-	.	.	.	.
.	.	.	8f/	.	8f/	.	.	.	.	.	.	.	.	.	.	.
8F\J	.	.	.	.	.	.	8F\J	.	.	.	8b-\J	.	.	.	.	.
.	.	.	16f/Jk	.	16f/Jk	.	.	.	.	.	.	.	.	.	.	.
!	!	!	!	!	!	!	!	!	!	!	!	!	!	!	!	!LO:LB:g=original
=39	=39	=39	=39	=39	=39	=39	=39	=39	=39	=39	=39	=39	=39	=39	=39	=39
8c\L	.	.	16f/KL	.	16f/KL	.	4c\	-ni	2ryy	2ryy	4an\	.	2ryy	2ryy	2f/	2ff\
*	*	*	*	*	*	*	*	*Xij	*	*	*	*	*	*	*	*
.	.	.	8f/	.	8f/	.	.	.	.	.	.	.	.	.	.	.
8F\	.	.	.	.	.	.	.	.	.	.	.	.	.	.	.	.
.	.	.	8f/	.	8f/	.	.	.	.	.	.	.	.	.	.	.
8d\	.	.	.	.	.	.	4d\	.	.	.	4b-\	-ni	.	.	.	.
.	.	.	8f/	.	8f/	.	.	.	.	.	.	.	.	.	.	.
8F\J	.	.	.	.	.	.	.	.	.	.	.	.	.	.	.	.
.	.	.	16f/Jk	.	16f/Jk	.	.	.	.	.	.	.	.	.	.	.
!	!	!	!LO:LB:g=original	!	!	!	!	!	!	!	!	!	!	!	!	!
=40	=40	=40	=40	=40	=40	=40	=40	=40	=40	=40	=40	=40	=40	=40	=40	=40
!	!	!	!	!	!	!	!LO:TX:a:t=2	!	!	!	!LO:TX:a:t=2	!	!	!	!LO:TX:b:t=9:color=grey	!LO:TX:a:t=9
8A-\L	.	.	16f/KL	.	8ee-\L	.	1r	.	2ryy	2ryy	1r	.	2ryy	2ryy	0r	0r
.	.	.	8f/	.	.	.	.	.	.	.	.	.	.	.	.	.
8F\	.	.	.	.	8cc\J	.	.	.	.	.	.	.	.	.	.	.
.	.	.	8f/	.	.	.	.	.	.	.	.	.	.	.	.	.
8B-\	.	.	.	.	16ee-\LL	.	.	.	.	.	.	.	.	.	.	.
.	.	.	8f/	.	16dd\	.	.	.	.	.	.	.	.	.	.	.
8F\J	.	.	.	.	16cc\	.	.	.	.	.	.	.	.	.	.	.
.	.	.	16f/Jk	.	16b-\JJ	.	.	.	.	.	.	.	.	.	.	.
=41	=41	=41	=41	=41	=41	=41	=41	=41	=41	=41	=41	=41	=41	=41	=41	=41
8c\L	.	.	16f/KL	.	16an\LL	.	.	.	2ryy	2ryy	.	.	2ryy	2ryy	.	.
.	.	.	8f/	.	16cc\	.	.	.	.	.	.	.	.	.	.	.
8F\	.	.	.	.	16dd\	.	.	.	.	.	.	.	.	.	.	.
.	.	.	8f/	.	16cc\JJ	.	.	.	.	.	.	.	.	.	.	.
8d\	.	.	.	.	16cc\LL	.	.	.	.	.	.	.	.	.	.	.
.	.	.	8f/	.	16b-\J	.	.	.	.	.	.	.	.	.	.	.
8F\J	.	.	.	.	8b-\J	.	.	.	.	.	.	.	.	.	.	.
.	.	.	16f/Jk	.	.	.	.	.	.	.	.	.	.	.	.	.
!LO:LB:g=original	!	!	!	!	!LO:LB:g=original	!	!	!	!	!	!	!	!	!	!	!
=42	=42	=42	=42	=42	=42	=42	=42	=42	=42	=42	=42	=42	=42	=42	=42	=42
*tremolo	*	*	*	*	*	*	*	*	*	*	*	*	*	*	*	*
8En\L	6	.	16gn/KL	.	16dd-X\LL	.	4En\	Be-	2ryy	2ryy	4dd-X\	Be-	2ryy	2ryy	.	.
.	.	.	8g/	.	16bb-\	.	.	.	.	.	.	.	.	.	.	.
8En\	.	.	.	.	16bb-\	.	.	.	.	.	.	.	.	.	.	.
.	.	.	8g/	.	16dd-\JJ	.	.	.	.	.	.	.	.	.	.	.
8En\	.	.	.	.	16dd-\LL	.	4E\	-ne-	.	.	4dd-\	-ne-	.	.	.	.
.	.	.	8g/	.	16bb-\	.	.	.	.	.	.	.	.	.	.	.
8En\J	.	.	.	.	16bb-\	.	.	.	.	.	.	.	.	.	.	.
.	.	.	16g/Jk	.	16dd-\JJ	.	.	.	.	.	.	.	.	.	.	.
=43	=43	=43	=43	=43	=43	=43	=43	=43	=43	=43	=43	=43	=43	=43	=43	=43
8F\L	n	.	16an/KL	.	16cc\LL	.	4F\	.	2ryy	2ryy	4cc\	.	2ryy	2ryy	.	.
.	.	.	8a/	.	16ff\	.	.	.	.	.	.	.	.	.	.	.
8F\	.	.	.	.	16ff\	.	.	.	.	.	.	.	.	.	.	.
.	.	.	8a/	.	16cc\JJ	.	.	.	.	.	.	.	.	.	.	.
8F\	.	.	.	.	16cc\LL	.	4r	.	.	.	4r	.	.	.	.	.
.	.	.	8a/	.	16an\	.	.	.	.	.	.	.	.	.	.	.
8F\J	.	.	.	.	16a\	.	.	.	.	.	.	.	.	.	.	.
.	.	.	16a/Jk	.	16f\JJ	.	.	.	.	.	.	.	.	.	.	.
=44	=44	=44	=44	=44	=44	=44	=44	=44	=44	=44	=44	=44	=44	=44	=44	=44
8En\L	.	.	16g/KL	.	16dd-X\LL	.	4En\	-di-	2ryy	2ryy	4dd-X\	-di-	2ryy	2ryy	0r	0r
.	.	.	8g/	.	16bb-\	.	.	.	.	.	.	.	.	.	.	.
8En\	.	.	.	.	16bb-\	.	.	.	.	.	.	.	.	.	.	.
.	.	.	8g/	.	16dd-\JJ	.	.	.	.	.	.	.	.	.	.	.
8En\	.	.	.	.	16dd-\LL	.	4E\	-ctus	.	.	4dd-\	-ctus	.	.	.	.
.	.	.	8g/	.	16bb-\	.	.	.	.	.	.	.	.	.	.	.
8En\J	.	.	.	.	16bb-\	.	.	.	.	.	.	.	.	.	.	.
.	.	.	16g/Jk	.	16dd-\JJ	.	.	.	.	.	.	.	.	.	.	.
=45	=45	=45	=45	=45	=45	=45	=45	=45	=45	=45	=45	=45	=45	=45	=45	=45
8F\L	n	.	8a-/L	.	(16a-\LL	.	4F\	.	2ryy	2ryy	4cc\	.	2ryy	2ryy	.	.
.	.	.	.	.	16ff\)	.	.	.	.	.	.	.	.	.	.	.
8F\	.	.	16g/L	.	(16een\	.	.	.	.	.	.	.	.	.	.	.
.	.	.	16a-/JJ	.	16gg\JJ)	.	.	.	.	.	.	.	.	.	.	.
8F\	.	.	4a-/	.	4ff\	.	4r	.	.	.	4r	.	.	.	.	.
8F\J	.	.	.	.	.	.	.	.	.	.	.	.	.	.	.	.
*Xtremolo	*	*	*	*	*	*	*	*	*	*	*	*	*	*	*	*
=46	=46	=46	=46	=46	=46	=46	=46	=46	=46	=46	=46	=46	=46	=46	=46	=46
*	*	*	*tremolo	*	*	*	*	*	*	*	*	*	*	*	*	*
8E-X\L	.	.	8b-\L	.	4gg\	.	4E-\	qui	2ryy	2ryy	4gg\	Be-	2ryy	2ryy	.	.
8E-\	.	.	8b-\	.	.	.	.	.	.	.	.	.	.	.	.	.
8D\	.	.	8b-\	.	4ff\	.	4D\	.	.	.	4ff\	-ne-	.	.	.	.
8D\J	.	.	8b-\J	.	.	.	.	.	.	.	.	.	.	.	.	.
=47	=47	=47	=47	=47	=47	=47	=47	=47	=47	=47	=47	=47	=47	=47	=47	=47
8C/L	.	.	8f/L	.	4ee-\	.	4C/	ve-	2ryy	2ryy	4ee-\	-di-	2ryy	2ryy	.	.
8C/J	.	.	8f/	.	.	.	.	.	.	.	.	.	.	.	.	.
8BB-/L	.	.	8f/	.	4dd\	.	4BB-/	.	.	.	4dd\	-ctus	.	.	.	.
8BB-/J	.	.	8f/J	.	.	.	.	.	.	.	.	.	.	.	.	.
*	*	*	*Xtremolo	*	*	*	*	*	*	*	*	*	*	*	*	*
=48	=48	=48	=48	=48	=48	=48	=48	=48	=48	=48	=48	=48	=48	=48	=48	=48
!LO:TX:a:t=P:problem=mixed beam	!	!	!	!	!	!	!	!	!	!	!	!	!	!	!	!
8E-\L	.	.	8e-/L	.	8cc\L	.	8E-\L	-nit	2ryy	2ryy	8cc\	qui	2ryy	2ryy	2r	2r
8E-\	.	.	16g/L	.	16ee-\L	.	8E-\J	.	.	.	16ee-\LL	ve-	.	.	.	.
.	.	.	16e-/JJ	.	16cc\JJ	.	.	.	.	.	16dd\JJ	.	.	.	.	.
8F\	.	.	8d/L	.	8b-\L	.	4F\	in	.	.	8cc\L	-nit	.	.	.	.
8FF/J	.	.	8c/J	.	8an\J	.	.	.	.	.	8an\J	.	.	.	.	.
!	!	!	!LO:LB:g=original	!	!	!	!	!	!	!	!	!	!	!	!	!
=49	=49	=49	=49	=49	=49	=49	=49	=49	=49	=49	=49	=49	=49	=49	=49	=49
8BB-/	.	.	8d/	.	8b-\	.	8BB-/	no-	2ryy	2ryy	8b-\	in	2ryy	2ryy	8r	8r
8r	.	.	4d/	.	4f/	.	4F\	.	.	.	4dd\	.	.	.	4dd\	4ff\
8r	.	.	.	.	.	.	.	.	.	.	.	.	.	.	.	.
8F\	.	.	8c/	.	8e-/	.	8E-\	.	.	.	8cc\	.	.	.	8cc\	8ee-\
!	!	!	!	!	!LO:LB:g=original	!	!LO:LB:g=original	!	!	!	!	!	!	!	!	!
=50	=50	=50	=50	=50	=50	=50	=50	=50	=50	=50	=50	=50	=50	=50	=50	=50
8BB-/	.	.	8B-/	.	8d/	.	8BB-/	-mi-	2ryy	2ryy	8b-\	no-	2ryy	2ryy	8b-\	8dd\
8r	.	.	4d/	.	4f/	.	4F\	.	.	.	4dd\	.	.	.	4dd\	4ff\
8r	.	.	.	.	.	.	.	.	.	.	.	.	.	.	.	.
8F\	.	.	8c/	.	8e-/	.	8E-\	.	.	.	8cc\	-mi-	.	.	8cc\	8ee-\
!	!	!	!	!	!	!	!	!	!	!	!LO:LB:g=original	!	!	!	!	!
=51	=51	=51	=51	=51	=51	=51	=51	=51	=51	=51	=51	=51	=51	=51	=51	=51
*tremolo	*	*	*	*	*	*	*	*	*	*	*	*	*	*	*	*
8BB-/L	.	.	16B-/LL	.	16d/LL	.	4D\	-ne	2ryy	2ryy	4b-\	-ne	2ryy	2ryy	16b-\LL	16dd\LL
.	.	.	16c/	.	16e-/	.	.	.	.	.	.	.	.	.	16cc\	16ee-\
8BB-/	.	.	16d/	.	16f/	.	.	.	.	.	.	.	.	.	16dd\	16ff\
.	.	.	16B-/JJ	.	16e-/JJ	.	.	.	.	.	.	.	.	.	16cc\JJ	16ee-\JJ
8BB-/	.	.	16e-/LL	.	16g/LL	.	4r	.	.	.	4r	.	.	.	16ee-\LL	16gg\LL
.	.	.	16d/	.	16f/	.	.	.	.	.	.	.	.	.	16dd\	16ff\
8BB-/J	.	.	16c/	.	16e-/	.	.	.	.	.	.	.	.	.	16cc\	16ee-\
.	.	.	16B-/JJ	.	16d/JJ	.	.	.	.	.	.	.	.	.	16b-\JJ	16dd\JJ
=52	=52	=52	=52	=52	=52	=52	=52	=52	=52	=52	=52	=52	=52	=52	=52	=52
!	!	!	!	!	!	!	!LO:TX:a:t=7.	!	!	!	!LO:TX:a:t=5	!	!	!	!	!
8F\L	.	.	16c/LL	.	16e-/LL	.	0r	.	2ryy	2ryy	0r	.	2ryy	2ryy	16cc\LL	16ee-\LL
.	.	.	16B-/	.	16d/	.	.	.	.	.	.	.	.	.	16b-\	16dd\
8F\	.	.	16An/	.	16c/	.	.	.	.	.	.	.	.	.	16a\	16cc\
.	.	.	16B-/JJ	.	16d/JJ	.	.	.	.	.	.	.	.	.	16b-\JJ	16dd\JJ
8F\	.	.	16c/LL	.	16e-/LL	.	.	.	.	.	.	.	.	.	16cc\LL	16ee-\LL
.	.	.	16A/	.	16c/	.	.	.	.	.	.	.	.	.	16a\	16cc\
8F\J	.	.	16d/	.	16f/	.	.	.	.	.	.	.	.	.	16dd\	16ff\
.	.	.	16c/JJ	.	16e-/JJ	.	.	.	.	.	.	.	.	.	16cc\JJ	16dd\JJ
=53	=53	=53	=53	=53	=53	=53	=53	=53	=53	=53	=53	=53	=53	=53	=53	=53
!	!	!	!LO:TX:a:t=P:problem=takty 53-54 zapisane repetycją	!	!	!	!	!	!	!	!	!	!	!	!LO:TX:a:t=P:problem=takty 53-54 zapisane repetycją	!LO:TX:a:t=P:problem=takty 53-54 zapisane repetycją
8BB-/L	.	.	16B-/LLyy	.	16d/LL	.	.	.	2ryy	2ryy	.	.	2ryy	2ryy	16b-\LLyy	16dd\LLyy
.	.	.	16c/yy	.	16e-/	.	.	.	.	.	.	.	.	.	16cc\yy	16ee-\yy
8BB-/	.	.	16d/yy	.	16f/	.	.	.	.	.	.	.	.	.	16dd\yy	16ff\yy
.	.	.	16B-/JJyy	.	16e-/JJ	.	.	.	.	.	.	.	.	.	16cc\JJyy	16ee-\JJyy
8BB-/	.	.	16e-/LLyy	.	16g/LL	.	.	.	.	.	.	.	.	.	16ee-\LLyy	16gg\LLyy
.	.	.	16d/yy	.	16f/	.	.	.	.	.	.	.	.	.	16dd\yy	16ff\yy
8BB-/J	.	.	16c/yy	.	16e-/	.	.	.	.	.	.	.	.	.	16cc\yy	16ee-\yy
.	.	.	16B-/JJyy	.	16d/JJ	.	.	.	.	.	.	.	.	.	16b-\JJyy	16dd\JJyy
!LO:LB:g=original	!	!	!	!	!	!	!	!	!	!	!	!	!	!	!	!
=54	=54	=54	=54	=54	=54	=54	=54	=54	=54	=54	=54	=54	=54	=54	=54	=54
8F\L	.	.	16c/LLyy	.	16e-/LL	.	.	.	2ryy	2ryy	.	.	2ryy	2ryy	16cc\LLyy	16ee-\LLyy
.	.	.	16B-/yy	.	16d/	.	.	.	.	.	.	.	.	.	16b-\yy	16dd\yy
8F\	.	.	16An/yy	.	16c/	.	.	.	.	.	.	.	.	.	16a\yy	16cc\yy
.	.	.	16B-/JJyy	.	16d/JJ	.	.	.	.	.	.	.	.	.	16b-\JJyy	16dd\JJyy
8F\	.	.	16c/LLyy	.	16e-/LL	.	.	.	.	.	.	.	.	.	16cc\LLyy	16ee-\LLyy
.	.	.	16A/yy	.	16c/	.	.	.	.	.	.	.	.	.	16a\yy	16cc\yy
8F\J	.	.	16d/yy	.	16f/	.	.	.	.	.	.	.	.	.	16dd\yy	16ff\yy
.	.	.	16c/JJyy	.	16e-/JJ	.	.	.	.	.	.	.	.	.	16cc\JJyy	16dd\JJyy
*Xtremolo	*	*	*	*	*	*	*	*	*	*	*	*	*	*	*	*
=55	=55	=55	=55	=55	=55	=55	=55	=55	=55	=55	=55	=55	=55	=55	=55	=55
8BB-\L	.	.	8d/L	.	16d/LL	.	.	.	2ryy	2ryy	.	.	2ryy	2ryy	4b-\	4dd\
.	.	.	.	.	16f/	.	.	.	.	.	.	.	.	.	.	.
8BB-\	.	.	8f/	.	16b-/	.	.	.	.	.	.	.	.	.	.	.
.	.	.	.	.	16dd/JJ	.	.	.	.	.	.	.	.	.	.	.
8D\	.	.	8f/	.	16ff\LL	.	.	.	.	.	.	.	.	.	4r	4r
.	.	.	.	.	16dd\	.	.	.	.	.	.	.	.	.	.	.
8D\J	.	.	8f/J	.	16b-\	.	.	.	.	.	.	.	.	.	.	.
.	.	.	.	.	16a-X\JJ	.	.	.	.	.	.	.	.	.	.	.
!	!	!	!	!	!LO:LB:g=original	!	!	!	!	!	!	!	!	!	!	!
=56	=56	=56	=56	=56	=56	=56	=56	=56	=56	=56	=56	=56	=56	=56	=56	=56
!LO:TX:a:t=P:problem=mixed beam	!	!	!	!	!	!	!	!	!	!	!	!	!	!	!	!
8E-\L	.	.	8.e-/L	.	8.g/L	.	1r	.	2ryy	2ryy	2r	.	2ryy	2ryy	8.ee-\L	8.gg\L
8E-\	.	.	.	.	.	.	.	.	.	.	.	.	.	.	.	.
.	.	.	32d/LL	.	32f/LL	.	.	.	.	.	.	.	.	.	32dd\LL	32ff\LL
.	.	.	32c/JJJ	.	32e-/JJJ	.	.	.	.	.	.	.	.	.	32cc\JJJ	32ee-\JJJ
8F\	.	.	8B-/L	.	8d/L	.	.	.	.	.	.	.	.	.	8b-\L	8dd\L
8FF/J	.	.	8An/J	.	8c/J	.	.	.	.	.	.	.	.	.	8a-\J	8cc\J
=57	=57	=57	=57	=57	=57	=57	=57	=57	=57	=57	=57	=57	=57	=57	=57	=57
*tremolo	*	*	*	*	*	*	*	*	*	*	*	*	*	*	*	*
!LO:TX:a:t=Solo	!	!	!	!LO:DY:t=p.	!LO:TX:a:t=P:problem=mixed beam	!	!	!	!	!	!	!	!	!	!	!
8BB-/L	.	.	8d/L	p	8d/L	.	.	.	2ryy	2ryy	4.b-\	Be-	2ryy	2ryy	4d/	4b-\
8BB-/	.	.	8f/	.	8dd\	.	.	.	.	.	.	.	.	.	.	.
8BB-/	.	.	8f/	.	8dd\	.	.	.	.	.	.	.	.	.	4r	4r
8BB-/J	.	.	8f/J	.	8dd\J	.	.	.	.	.	16ff\LL	-ne-	.	.	.	.
.	.	.	.	.	.	.	.	.	.	.	16dd\JJ	.	.	.	.	.
!	!	!	!LO:LB:g=original	!	!	!	!	!	!	!	!	!	!	!	!LO:LB:g=original	!
=58	=58	=58	=58	=58	=58	=58	=58	=58	=58	=58	=58	=58	=58	=58	=58	=58
!	!	!	!	!	!	!	!	!	!	!	!	!	!	!	!LO:TX:a:t=20	!LO:TX:a:t=20
8F\L	.	.	16b-\LL	.	16dd\LL	.	2r	.	2ryy	2ryy	16dd\LL	-di-	2ryy	2ryy	2r	2r
.	.	.	16a-\J	.	16cc\J	.	.	.	.	.	16cc\JJ	.	.	.	.	.
8F\	.	.	8a-\J	.	8cc\J	.	.	.	.	.	8cc\	-ctus	.	.	.	.
8F\	.	.	16a-\LL	.	16cc\LL	.	.	.	.	.	4r	.	.	.	.	.
.	.	.	16g\	.	16b-\	.	.	.	.	.	.	.	.	.	.	.
8F\J	.	.	16g\	.	16b-\	.	.	.	.	.	.	.	.	.	.	.
.	.	.	16f\JJ	.	16an\JJ	.	.	.	.	.	.	.	.	.	.	.
=59	=59	=59	=59	=59	=59	=59	=59	=59	=59	=59	=59	=59	=59	=59	=59	=59
8F\L	.	.	16a-\LL	.	(16cc\LL	.	16An\LL	Be-	2ryy	2ryy	16cc\LL	qui	2ryy	2ryy	2r	2r
.	.	.	16g\	.	16b-\	.	16G\	.	.	.	16b-\	.	.	.	.	.
8F\	.	.	16f\	.	16an\	.	16F\	.	.	.	16a-\	.	.	.	.	.
.	.	.	16g\JJ	.	16b-\JJ)	.	16G\JJ	.	.	.	16b-\JJ	.	.	.	.	.
8F\	.	.	8a-\L	.	8cc\L	.	8A\L	-ne-	.	.	8cc\	ve-	.	.	.	.
8F\J	.	.	16b-\L	.	(16dd\L	.	16B-\L	.	.	.	16dd\LL	.	.	.	.	.
.	.	.	16cc\JJ	.	16ee-\JJ)	.	16c\JJ	.	.	.	16ee-\JJ	.	.	.	.	.
=60	=60	=60	=60	=60	=60	=60	=60	=60	=60	=60	=60	=60	=60	=60	=60	=60
8BB-/L	.	.	8cc\L	.	8ee-\L	.	8c\L	-di-	2ryy	2ryy	8ee-\L	-nit	2ryy	2ryy	2r	2r
8BB-/	.	.	8b-\J	.	8dd\J	.	8B-\J	-ctus	.	.	8dd\J	.	.	.	.	.
8BB-/	.	.	16dd\LL	.	(16ff\LL	.	4r	.	.	.	4r	.	.	.	.	.
.	.	.	16cc\	.	16ee-\	.	.	.	.	.	.	.	.	.	.	.
8BB-/J	.	.	16cc\	.	16ee-\	.	.	.	.	.	.	.	.	.	.	.
.	.	.	16b-\JJ	.	16dd\JJ)	.	.	.	.	.	.	.	.	.	.	.
=61	=61	=61	=61	=61	=61	=61	=61	=61	=61	=61	=61	=61	=61	=61	=61	=61
*	*	*	*tremolo	*	*tremolo	*	*	*ij	*	*	*	*	*	*	*	*
8D\L	.	.	8B-/L	.	8f/L	.	4D\	Be-	2ryy	2ryy	4.b-\	in	2ryy	2ryy	2r	2r
8D\	.	.	8B-/	.	8f/	.	.	.	.	.	.	.	.	.	.	.
8D\	.	.	8B-/	.	8f/	.	4D\	-ne-	.	.	.	.	.	.	.	.
8D\J	.	.	8B-/J	.	8f/J	.	.	.	.	.	8a-\	no-	.	.	.	.
*	*	*	*Xtremolo	*	*	*	*	*	*	*	*	*	*	*	*	*
=62	=62	=62	=62	=62	=62	=62	=62	=62	=62	=62	=62	=62	=62	=62	=62	=62
8E-\L	.	.	8B-/L	.	8g/L	.	4E-\	-di-	2ryy	2ryy	32g/LLL	-mi-	2ryy	2ryy	2r	2r
.	.	.	.	.	.	.	.	.	.	.	32f/J	.	.	.	.	.
.	.	.	.	.	.	.	.	.	.	.	16e-/JJ	.	.	.	.	.
8E-\	.	.	8B-/	.	8g/	.	.	.	.	.	8e-/	-ne	.	.	.	.
8E-\	.	.	8B-/J	.	8g/	.	8E-\L	.	.	.	8r	.	.	.	.	.
8E-\J	.	.	8r	.	8g/J	.	8E-\J	.	.	.	8cc\	in	.	.	.	.
*Xtremolo	*	*	*	*	*	*	*	*	*	*	*	*	*	*	*	*
=63	=63	=63	=63	=63	=63	=63	=63	=63	=63	=63	=63	=63	=63	=63	=63	=63
*	*	*	*tremolo	*	*	*	*	*	*	*	*	*	*	*	*	*
8E-\L	.	.	8c/L	.	8an/L	.	8E-\	-ctus	2ryy	2ryy	8ee-\L	no-	2ryy	2ryy	2r	2r
*	*	*	*	*	*	*	*	*Xij	*	*	*	*	*	*	*	*
8E-\	.	.	8c/	.	8an/	.	8E-\	ve-	.	.	8ff\J	.	.	.	.	.
8E-\	.	.	8c/	.	8an/	.	8E-\	.	.	.	8gg\L	-mi-	.	.	.	.
8En\J	.	.	8c/J	.	8an/J	.	8En\	-nit	.	.	8b-\J	.	.	.	.	.
*	*	*	*Xtremolo	*	*Xtremolo	*	*	*	*	*	*	*	*	*	*	*
=64	=64	=64	=64	=64	=64	=64	=64	=64	=64	=64	=64	=64	=64	=64	=64	=64
!LO:TX:a:t=P:problem=mixed beam	!	!	!	!	!	!	!	!	!	!	!	!	!	!	!	!
8F\L	.	.	8d/L	.	16b-/LL	.	16F\LL	.	2ryy	2ryy	16b-\LL	-ne	2ryy	2ryy	2r	2r
.	.	.	.	.	16a-/J	.	16F\J	.	.	.	16an\JJ	.	.	.	.	.
8FF/	.	.	16c/L	.	8a-/J	.	8F\J	.	.	.	8a\	do	.	.	.	.
.	.	.	16B-/JJ	.	.	.	.	.	.	.	.	.	.	.	.	.
!	!	!	!	!	!	!	!	!	!	!	!LO:LB:g=original	!	!	!	!	!
8FF/J	.	.	8c/L	.	8a-/L	.	4r	.	.	.	8r	.	.	.	.	.
8r	.	.	8c/J	.	8a-/J	.	.	.	.	.	8f/	do-	.	.	.	.
!	!	!	!	!	!LO:LB:g=original	!	!	!	!	!	!	!	!	!	!	!
=65	=65	=65	=65	=65	=65	=65	=65	=65	=65	=65	=65	=65	=65	=65	=65	=65
*	*	*	*tremolo	*	*	*	*	*	*	*	*	*	*	*	*	*
8AAn/L	.	.	8f/L	.	8ee-\L	.	4c\	Be-	2ryy	2ryy	4ee-\	.	2ryy	2ryy	2r	2r
8AA/	.	.	8f/	.	8ee-\	.	.	.	.	.	.	.	.	.	.	.
8BB-/	.	.	8f/	.	8dd\	.	4B-\	ne-	.	.	4dd\	-mi-	.	.	.	.
8BB-/J	.	.	8f/J	.	8dd\J	.	.	.	.	.	.	.	.	.	.	.
*	*	*	*Xtremolo	*	*	*	*	*	*	*	*	*	*	*	*	*
=66	=66	=66	=66	=66	=66	=66	=66	=66	=66	=66	=66	=66	=66	=66	=66	=66
*tremolo	*	*	*	*	*	*	*	*	*	*	*	*	*	*	*	*
8F\L	.	.	8b-\L	.	8dd\L	.	8B-\L	-di-	2ryy	2ryy	8dd\L	-ni	2ryy	2ryy	2r	2r
8F\	.	.	8a-\J	.	8ccT\J	.	8An\J	-ctus	.	.	8cc\J	.	.	.	.	.
8F\	.	.	4r	.	4r	.	4r	.	.	.	8r	.	.	.	.	.
8F\J	.	.	.	.	.	.	.	.	.	.	8cc\	qui	.	.	.	.
!LO:LB:g=original	!	!	!	!	!	!	!LO:LB:g=original	!	!	!	!	!	!	!	!	!
=67	=67	=67	=67	=67	=67	=67	=67	=67	=67	=67	=67	=67	=67	=67	=67	=67
*	*	*	*tremolo	*	*tremolo	*	*	*	*	*	*	*	*	*	*	*
!	!	!	!	!	!	!	!LO:TX:a:t=3	!	!	!	!	!	!	!	!	!
8F\L	.	.	8c/L	.	8an/L	.	1r	.	2ryy	2ryy	4ff\	.	2ryy	2ryy	2r	2r
8F\	.	.	8c/	.	8an/	.	.	.	.	.	.	.	.	.	.	.
8F\	.	.	8c/	.	8an/	.	.	.	.	.	4ff\	ve-	.	.	.	.
8F\J	.	.	8c/J	.	8an/J	.	.	.	.	.	.	.	.	.	.	.
!	!	!	!LO:LB:g=original	!	!	!	!	!	!	!	!	!	!	!	!	!
=68	=68	=68	=68	=68	=68	=68	=68	=68	=68	=68	=68	=68	=68	=68	=68	=68
8C/L	.	.	8en/L	.	8b-\L	.	.	.	2ryy	2ryy	16een\LL	-nit	2ryy	2ryy	2r	2r
.	.	.	.	.	.	.	.	.	.	.	16ff\JJ	.	.	.	.	.
8C/	.	.	8en/	.	8b-\	.	.	.	.	.	16gg\LL	.	.	.	.	.
.	.	.	.	.	.	.	.	.	.	.	16aa-\JJ	.	.	.	.	.
8C/	.	.	8en/	.	8b-\	.	.	.	.	.	8bb-\L	qui	.	.	.	.
8C/J	.	.	8en/J	.	8b-\J	.	.	.	.	.	8b-\J	.	.	.	.	.
*	*	*	*Xtremolo	*	*Xtremolo	*	*	*	*	*	*	*	*	*	*	*
=69	=69	=69	=69	=69	=69	=69	=69	=69	=69	=69	=69	=69	=69	=69	=69	=69
8F\L	.	.	16g/LL	.	8b-/L	.	2r	.	2ryy	2ryy	8b-\L	ve-	2ryy	2ryy	2r	2r
.	.	.	16f/J	.	.	.	.	.	.	.	.	.	.	.	.	.
8F\	.	.	8f/J	.	8a-/J	.	.	.	.	.	8an\J	-nit	.	.	.	.
8F\	.	.	16a-/LL	.	16cc/LL	.	.	.	.	.	4r	.	.	.	.	.
.	.	.	16g/	.	16b-/	.	.	.	.	.	.	.	.	.	.	.
8F\J	.	.	16g/	.	16b-/	.	.	.	.	.	.	.	.	.	.	.
.	.	.	16f/JJ	.	16a-/JJ	.	.	.	.	.	.	.	.	.	.	.
=70	=70	=70	=70	=70	=70	=70	=70	=70	=70	=70	=70	=70	=70	=70	=70	=70
8F\L	.	.	8a-/L	.	8cc\L	.	8A-\L	qui	2ryy	2ryy	8cc\L	Be-	2ryy	2ryy	2r	2r
8F\	.	.	16f/L	.	16a-\L	.	16F\L	.	.	.	16a-\L	.	.	.	.	.
.	.	.	16g/JJ	.	16b-\JJ	.	16G\JJ	.	.	.	16b-\JJ	.	.	.	.	.
8F\	.	.	8a-/L	.	8cc\L	.	8A-\L	ve-	.	.	8cc\L	-ne-	.	.	.	.
8F\J	.	.	16b-/L	.	16dd\L	.	16B-\L	.	.	.	16dd\L	.	.	.	.	.
.	.	.	16cc/JJ	.	16ee-\JJ	.	16c\JJ	.	.	.	16ee-\JJ	.	.	.	.	.
=71	=71	=71	=71	=71	=71	=71	=71	=71	=71	=71	=71	=71	=71	=71	=71	=71
8B-\L	.	.	8cc\L	.	8ee-\L	.	8c\L	-nit	2ryy	2ryy	8ee-\L	-di-	2ryy	2ryy	2r	2r
8B-\	.	.	8b-\J	.	8dd\J	.	8B-\J	.	.	.	8dd\J	-ctus	.	.	.	.
8B-\	.	.	16dd\LL	.	16ff\LL	.	4r	.	.	.	4r	.	.	.	.	.
.	.	.	16cc\	.	16ee-\	.	.	.	.	.	.	.	.	.	.	.
8B-\J	.	.	16cc\	.	16ee-\	.	.	.	.	.	.	.	.	.	.	.
.	.	.	16b-\JJ	.	16dd\JJ	.	.	.	.	.	.	.	.	.	.	.
=72	=72	=72	=72	=72	=72	=72	=72	=72	=72	=72	=72	=72	=72	=72	=72	=72
8BB-/L	.	.	8dd\L	.	8ff\L	.	8D/L	in	2ryy	2ryy	8ff\L	qui	2ryy	2ryy	2r	2r
8BB-/	.	.	16b-\L	.	16dd\L	.	16BB-/L	.	.	.	16dd\L	.	.	.	.	.
.	.	.	16cc\JJ	.	16ee-\JJ	.	16C/JJ	.	.	.	16ee-\JJ	.	.	.	.	.
8BB-/	.	.	8dd\L	.	8ff\L	.	8D\L	no-	.	.	8ff\L	ve-	.	.	.	.
8BB-/J	.	.	16ee-\L	.	16gg\L	.	16E-\L	.	.	.	16gg\L	.	.	.	.	.
.	.	.	16ff\JJ	.	16aa-X\JJ	.	16F\JJ	.	.	.	16aa-\JJ	.	.	.	.	.
!	!	!	!	!	!	!	!	!	!	!	!LO:LB:g=original	!	!	!	!	!
=73	=73	=73	=73	=73	=73	=73	=73	=73	=73	=73	=73	=73	=73	=73	=73	=73
8E-\L	.	.	8ff\L	.	8aa-T\L	.	4F\	-mi-	2ryy	2ryy	8aa-\L	-nit	2ryy	2ryy	2r	2r
8E-\	.	.	8ee-\J	.	8gg\J	.	.	.	.	.	8gg\J	.	.	.	.	.
8E-\	.	.	4r	.	4r	.	8E-\	-ne	.	.	8r	.	.	.	.	.
8E-\J	.	.	.	.	.	.	16r	.	.	.	16ee-\LL	in	.	.	.	.
.	.	.	.	.	.	.	16G\	do-	.	.	16gg\JJ	.	.	.	.	.
*Xtremolo	*	*	*	*	*	*	*	*	*	*	*	*	*	*	*	*
=74	=74	=74	=74	=74	=74	=74	=74	=74	=74	=74	=74	=74	=74	=74	=74	=74
8r	.	.	4f/	.	4b-/	.	4G\	.	2ryy	2ryy	4b-\	no-	2ryy	2ryy	2r	2r
8BB-/L	.	.	.	.	.	.	.	.	.	.	.	.	.	.	.	.
8C/	.	.	4f/	.	4a-/	.	4F\	.	.	.	4a-\	-mi-	.	.	.	.
8D/J	.	.	.	.	.	.	.	.	.	.	.	.	.	.	.	.
!	!	!	!	!	!LO:LB:g=original	!	!	!	!	!	!	!	!	!	!	!
=75	=75	=75	=75	=75	=75	=75	=75	=75	=75	=75	=75	=75	=75	=75	=75	=75
8E-\L	.	.	16e-/LL	.	16g/LL	.	4E-\	.	2ryy	2ryy	4g\	-ne	2ryy	2ryy	2r	2r
.	.	.	16g/	.	16b-/	.	.	.	.	.	.	.	.	.	.	.
8E-\	.	.	16a-/	.	16cc/	.	.	.	.	.	.	.	.	.	.	.
.	.	.	16f/JJ	.	16dd/JJ	.	.	.	.	.	.	.	.	.	.	.
8E-\J	.	.	8g/L	.	8ee-\L	.	8r	.	.	.	8r	.	.	.	.	.
8r	.	.	16f/L	.	16ee-\L	.	(16G\LL	-mi-	.	.	16dd\LL	do-	.	.	.	.
.	.	.	16a-/JJ	.	16cc\JJ	.	16A-\JJ)	.	.	.	16cc\JJ	.	.	.	.	.
!	!	!	!LO:LB:g=original	!	!	!	!	!	!	!	!	!	!	!	!	!
=76	=76	=76	=76	=76	=76	=76	=76	=76	=76	=76	=76	=76	=76	=76	=76	=76
8r	.	.	4g/	.	4b-/	.	4G\	-ni	2ryy	2ryy	4b-\	-mi-	2ryy	2ryy	2r	2r
8BB-/L	.	.	.	.	.	.	.	.	.	.	.	.	.	.	.	.
8C/	.	.	4f/	.	4a-/	.	4F\	.	.	.	4a-\	-ni	.	.	.	.
8D/J	.	.	.	.	.	.	.	.	.	.	.	.	.	.	.	.
=77	=77	=77	=77	=77	=77	=77	=77	=77	=77	=77	=77	=77	=77	=77	=77	=77
*	*	*	*	*	*	*	*	*ij	*	*	*	*ij	*	*	*	*
8E-\L	.	.	8e-/L	.	8g/L	.	8E-\L	do-	2ryy	2ryy	8g\L	do-	2ryy	2ryy	2r	2r
8c\	.	.	8g/	.	8ee-/	.	8c\J	.	.	.	8ee-\J	.	.	.	.	.
8A-\	.	.	8a-/	.	8ff/	.	8A-\L	-mi-	.	.	8ff\L	-mi-	.	.	.	.
8B-\J	.	.	8f/J	.	8dd/J	.	8B-\J	.	.	.	8dd\J	.	.	.	.	.
=78	=78	=78	=78	=78	=78	=78	=78	=78	=78	=78	=78	=78	=78	=78	=78	=78
8E-\L	.	.	4g/	.	4ee-\	.	4E-\	-ni	2ryy	2ryy	4ee-\	-ni	2ryy	2ryy	4g/	4ee-\
*	*	*	*	*	*	*	*	*Xij	*	*	*	*Xij	*	*	*	*
8BB-\J	.	.	.	.	.	.	.	.	.	.	.	.	.	.	.	.
8EE-/	.	.	4r	.	8r	.	4r	.	.	.	4r	.	.	.	8r	8r
8r	.	.	.	.	16ee-\LL	.	.	.	.	.	.	.	.	.	16g\LL	16ee-\LL
.	.	.	.	.	16gg\JJ	.	.	.	.	.	.	.	.	.	16ee-\JJ	16gg\JJ
!	!	!	!	!	!	!	!	!	!	!	!	!	!	!	!	!LO:LB:g=original
=79	=79	=79	=79	=79	=79	=79	=79	=79	=79	=79	=79	=79	=79	=79	=79	=79
!	!	!	!	!	!	!	!LO:TX:a:t=6	!	!	!	!LO:TX:a:t=6	!	!	!	!	!
8r	.	.	4g/	.	4b-/	.	0r	.	2ryy	2ryy	0r	.	2ryy	2ryy	4gg\	4bb-\
8BB-/L	.	.	.	.	.	.	.	.	.	.	.	.	.	.	.	.
8C/	.	.	4f/	.	4a-/	.	.	.	.	.	.	.	.	.	4ff\	4aa-\
8D/J	.	.	.	.	.	.	.	.	.	.	.	.	.	.	.	.
=80	=80	=80	=80	=80	=80	=80	=80	=80	=80	=80	=80	=80	=80	=80	=80	=80
!LO:TX:a:t=P:problem=takty 80-81 zapisane repetycją	!	!	!	!	!	!	!	!	!	!	!	!	!	!	!	!
8E-\Lyy	.	.	16e-/LL	.	16g/LL	.	.	.	2ryy	2ryy	.	.	2ryy	2ryy	16ee-\LL	16gg\LL
.	.	.	16g/	.	16b-/	.	.	.	.	.	.	.	.	.	16gg\	16bb-\
8BB-\Jyy	.	.	16f/	.	16a-/	.	.	.	.	.	.	.	.	.	16ff\	16aa-\
.	.	.	16a-/JJ	.	16cc/JJ	.	.	.	.	.	.	.	.	.	16aa-\JJ	16ccc\JJ
8EE-/yy	.	.	8g/	.	8b-\L	.	.	.	.	.	.	.	.	.	4gg\	8bb-\
8ryy	.	.	8r	.	16ee-\L	.	.	.	.	.	.	.	.	.	.	8r
.	.	.	.	.	16gg\JJ	.	.	.	.	.	.	.	.	.	.	.
=81	=81	=81	=81	=81	=81	=81	=81	=81	=81	=81	=81	=81	=81	=81	=81	=81
8ryy	.	.	4g/	.	4b-/	.	.	.	2ryy	2ryy	.	.	2ryy	2ryy	4gg\	4bb-\
8BB-/Lyy	.	.	.	.	.	.	.	.	.	.	.	.	.	.	.	.
8C/yy	.	.	4f/	.	4a-/	.	.	.	.	.	.	.	.	.	4ff\	4aa-\
8D/Jyy	.	.	.	.	.	.	.	.	.	.	.	.	.	.	.	.
!LO:LB:g=original	!	!	!	!	!	!	!	!	!	!	!	!	!	!	!	!
=82	=82	=82	=82	=82	=82	=82	=82	=82	=82	=82	=82	=82	=82	=82	=82	=82
*tremolo	*	*	*	*	*	*	*	*	*	*	*	*	*	*	*	*
8E-\L	.	.	16e-/LL	.	16g\LL	.	.	.	2ryy	2ryy	.	.	2ryy	2ryy	4ee-\	4gg\
.	.	.	16g/	.	16b-\	.	.	.	.	.	.	.	.	.	.	.
8E-\	.	.	16b-/	.	16ee-\	.	.	.	.	.	.	.	.	.	.	.
.	.	.	16dd/JJ	.	16gg\JJ	.	.	.	.	.	.	.	.	.	.	.
8E-\	.	.	8gg\L	.	16bb-\LL	.	.	.	.	.	.	.	.	.	4r	4r
.	.	.	.	.	16gg\	.	.	.	.	.	.	.	.	.	.	.
8E-\J	.	.	16ee-\L	.	16ee-\	.	.	.	.	.	.	.	.	.	.	.
.	.	.	16b-\JJ	.	16dd-X\JJ	.	.	.	.	.	.	.	.	.	.	.
*Xtremolo	*	*	*	*	*	*	*	*	*	*	*	*	*	*	*	*
=83	=83	=83	=83	=83	=83	=83	=83	=83	=83	=83	=83	=83	=83	=83	=83	=83
8A-\L	.	.	8cc\L	.	8cc\L	.	1r	.	2ryy	2ryy	1r	.	2ryy	2ryy	8r	8r
8A-\	.	.	16cc\L	.	16aa-\L	.	.	.	.	.	.	.	.	.	8a-X/L	8ff\
.	.	.	16a-\JJ	.	16ff\JJ	.	.	.	.	.	.	.	.	.	.	.
8B-\	.	.	8g/L	.	8ee-\L	.	.	.	.	.	.	.	.	.	8g/	8ee-\L
8BB-/J	.	.	8f/J	.	8dd\J	.	.	.	.	.	.	.	.	.	8f/J	8dd\J
!	!	!	!	!	!LO:LB:g=original	!	!	!	!	!	!	!	!	!	!	!
=84	=84	=84	=84	=84	=84	=84	=84	=84	=84	=84	=84	=84	=84	=84	=84	=84
8E-\L	.	.	8g/L	.	8ee-\L	.	.	.	2ryy	2ryy	.	.	2ryy	2ryy	8g/L	8ee-\L
8BB-\J	.	.	8g/J	.	8ee-\J	.	.	.	.	.	.	.	.	.	8g/J	8ee-\J
4E- 4EE-/	.	.	4g/	.	4ee-\	.	.	.	.	.	.	.	.	.	4g/	4ee-\
!	!	!	!	!	!	!	!LO:LB:g=original	!	!	!	!	!	!	!	!	!
=85	=85	=85	=85	=85	=85	=85	=85	=85	=85	=85	=85	=85	=85	=85	=85	=85
!	!	!LO:DY:rj:t=p.	!	!	!	!LO:DY:b:rj	!	!	!	!	!	!	!	!	!LO:TX:a:t=4	!LO:TX:a:t=4
8E-\L	.	p	4g/	.	4ee-\	p	4G\	in	2ryy	2ryy	4ee-\	Be-	2ryy	2ryy	0r	0r
8E-\	.	.	.	.	.	.	.	.	.	.	.	.	.	.	.	.
8E-\	.	.	16b-/LL	.	16gg\LL	.	16B-\LL	.	.	.	16gg\LL	-ne-	.	.	.	.
.	.	.	16a-/	.	16ff\	.	16A-\JJ	.	.	.	16ff\	.	.	.	.	.
8BB-\J	.	.	16g/	.	16ee-\	.	16G\LL	no-	.	.	16ee-\	.	.	.	.	.
.	.	.	16f/JJ	.	16dd\JJ	.	16F\JJ	.	.	.	16dd\JJ	.	.	.	.	.
!	!	!	!LO:LB:g=original	!	!	!	!	!	!	!	!	!	!	!	!	!
=86	=86	=86	=86	=86	=86	=86	=86	=86	=86	=86	=86	=86	=86	=86	=86	=86
*tremolo	*	*	*	*	*	*	*	*	*	*	*	*	*	*	*	*
8E-\L	.	.	4g/	.	4ee-\	.	16G\LL	-mi-	2ryy	2ryy	16ee-\LL	-di-	2ryy	2ryy	.	.
.	.	.	.	.	.	.	16A-\J	.	.	.	32dd\L	.	.	.	.	.
.	.	.	.	.	.	.	.	.	.	.	32cc\JJJ	.	.	.	.	.
8E-\	.	.	.	.	.	.	8G\J	-ne	.	.	8b-\	-ctus	.	.	.	.
8E-\	.	.	16g/LL	.	16ee-\LL	.	4r	.	.	.	4r	.	.	.	.	.
.	.	.	16f/	.	16dd\	.	.	.	.	.	.	.	.	.	.	.
8E-\J	.	.	16a-/	.	16cc\	.	.	.	.	.	.	.	.	.	.	.
.	.	.	16g/JJ	.	16b-\JJ	.	.	.	.	.	.	.	.	.	.	.
=87	=87	=87	=87	=87	=87	=87	=87	=87	=87	=87	=87	=87	=87	=87	=87	=87
*	*	*	*	*	*	*	*	*ij	*	*	*	*ij	*	*	*	*
8E-\L	6 4	.	8.a-/L	.	8.cc\L	.	8.A-\L	in	2ryy	2ryy	8.cc\L	Be-	2ryy	2ryy	.	.
8E-\	.	.	.	.	.	.	.	.	.	.	.	.	.	.	.	.
.	.	.	16b-/Jk	.	16dd\Jk	.	16B-\Jk	.	.	.	16dd\Jk	.	.	.	.	.
.	.	.	.	.	8qqff/	.	.	.	.	.	8qqff/	.	.	.	.	.
8E-\	.	.	8cc/L	.	8ee-\L	.	8c\L	no-	.	.	8ee-\L	-ne-	.	.	.	.
8E-\J	.	.	16b-/L	.	16dd\L	.	16B-\L	.	.	.	16dd\L	.	.	.	.	.
.	.	.	16a-/JJ	.	16cc\JJ	.	16A-\JJ	.	.	.	16cc\JJ	.	.	.	.	.
!	!	!	!	!	!	!	!	!	!	!	!LO:LB:g=original	!	!	!	!	!
=88	=88	=88	=88	=88	=88	=88	=88	=88	=88	=88	=88	=88	=88	=88	=88	=88
8E-\L	.	.	8a-/L	.	8cc\L	.	8A-\L	-mi-	2ryy	2ryy	8cc\L	-di-	2ryy	2ryy	.	.
8E-\	.	.	8g/J	.	8b-\J	.	8G\J	-ne	.	.	8b-\J	-ctus	.	.	.	.
*	*	*	*	*	*	*	*	*Xij	*	*	*	*Xij	*	*	*	*
8E-\	.	.	4r	.	16b-\KL	.	4r	.	.	.	8r	.	.	.	.	.
.	.	.	.	.	8b-\	.	.	.	.	.	.	.	.	.	.	.
8E-\J	.	.	.	.	.	.	.	.	.	.	8gg\	qui	.	.	.	.
.	.	.	.	.	16b-\Jk	.	.	.	.	.	.	.	.	.	.	.
*Xtremolo	*	*	*	*	*	*	*	*	*	*	*	*	*	*	*	*
=89	=89	=89	=89	=89	=89	=89	=89	=89	=89	=89	=89	=89	=89	=89	=89	=89
*	*	*	*tremolo	*	*tremolo	*	*	*	*	*	*	*	*	*	*	*
!	!	!	!	!	!	!	!LO:TX:a:t=4	!	!	!	!	!	!	!	!	!
8G\L	.	.	16b-\LL	.	16b-\LL	.	0r	.	2ryy	2ryy	32aa-\LLL	ve-	2ryy	2ryy	2b-\	[<2bb-\
.	.	.	.	.	.	.	.	.	.	.	32gg\	.	.	.	.	.
.	.	.	16b-\	.	16b-\	.	.	.	.	.	32aa-\	.	.	.	.	.
.	.	.	.	.	.	.	.	.	.	.	32gg\JJJ	.	.	.	.	.
8G\J	.	.	16b-\	.	16b-\	.	.	.	.	.	8dd\	.	.	.	.	.
.	.	.	16b-\	.	16b-\	.	.	.	.	.	.	.	.	.	.	.
8BB-/L	.	.	16b-\	.	16b-\	.	.	.	.	.	8r	.	.	.	.	.
.	.	.	16b-\	.	16b-\	.	.	.	.	.	.	.	.	.	.	.
8BB-/J	.	.	16b-\	.	16b-\	.	.	.	.	.	8ff\	.	.	.	.	.
.	.	.	16b-\JJ	.	16b-\JJ	.	.	.	.	.	.	.	.	.	.	.
=90	=90	=90	=90	=90	=90	=90	=90	=90	=90	=90	=90	=90	=90	=90	=90	=90
*tremolo	*	*	*	*	*	*	*	*	*	*	*	*	*	*	*	*
8E-\L	.	.	16b-\LL	.	16b-\LL	.	.	.	2ryy	2ryy	32gg\LLL	.	2ryy	2ryy	2b-\	2bb-\_<
.	.	.	.	.	.	.	.	.	.	.	32ff\	.	.	.	.	.
.	.	.	16b-\	.	16b-\	.	.	.	.	.	32gg\	.	.	.	.	.
.	.	.	.	.	.	.	.	.	.	.	32ff\JJJ	.	.	.	.	.
8E-\	.	.	16b-\	.	16b-\	.	.	.	.	.	8b-\	.	.	.	.	.
.	.	.	16b-\	.	16b-\	.	.	.	.	.	.	.	.	.	.	.
8E-\	.	.	16b-\	.	16b-\	.	.	.	.	.	8r	.	.	.	.	.
.	.	.	16b-\	.	16b-\	.	.	.	.	.	.	.	.	.	.	.
8E-\J	.	.	16b-\	.	16b-\	.	.	.	.	.	8gg\	.	.	.	.	.
.	.	.	16b-\JJ	.	16b-\JJ	.	.	.	.	.	.	.	.	.	.	.
*Xtremolo	*	*	*	*	*	*	*	*	*	*	*	*	*	*	*	*
=91	=91	=91	=91	=91	=91	=91	=91	=91	=91	=91	=91	=91	=91	=91	=91	=91
!LO:TX:a:t=P:problem=takty 91-92 zapisane repetycją	!	!	!	!	!	!	!	!	!	!	!	!	!	!	!	!
8G\Lyy	.	.	16b-\LL	.	16b-\LL	.	.	.	2ryy	2ryy	32aa-\LLL	.	2ryy	2ryy	2b-\	2bb-\_<
.	.	.	.	.	.	.	.	.	.	.	32gg\	.	.	.	.	.
.	.	.	16b-\	.	16b-\	.	.	.	.	.	32aa-\	.	.	.	.	.
.	.	.	.	.	.	.	.	.	.	.	32gg\JJJ	.	.	.	.	.
8G\Jyy	.	.	16b-\	.	16b-\	.	.	.	.	.	8dd\	.	.	.	.	.
.	.	.	16b-\	.	16b-\	.	.	.	.	.	.	.	.	.	.	.
8BB-/Lyy	.	.	16b-\	.	16b-\	.	.	.	.	.	8r	.	.	.	.	.
.	.	.	16b-\	.	16b-\	.	.	.	.	.	.	.	.	.	.	.
8BB-/Jyy	.	.	16b-\	.	16b-\	.	.	.	.	.	8ff\	.	.	.	.	.
.	.	.	16b-\JJ	.	16b-\JJ	.	.	.	.	.	.	.	.	.	.	.
=92	=92	=92	=92	=92	=92	=92	=92	=92	=92	=92	=92	=92	=92	=92	=92	=92
*tremolo	*	*	*	*	*	*	*	*	*	*	*	*	*	*	*	*
8E-\Lyy	.	.	16b-\LL	.	16b-\LL	.	.	.	2ryy	2ryy	32gg\LLL	.	2ryy	2ryy	2b-\	2bb-\]
.	.	.	.	.	.	.	.	.	.	.	32ff\	.	.	.	.	.
.	.	.	16b-\	.	16b-\	.	.	.	.	.	32gg\	.	.	.	.	.
.	.	.	.	.	.	.	.	.	.	.	32ff\JJJ	.	.	.	.	.
8E-\yy	.	.	16b-\	.	16b-\	.	.	.	.	.	8b-\	.	.	.	.	.
.	.	.	16b-\	.	16b-\	.	.	.	.	.	.	.	.	.	.	.
8E-\yy	.	.	16b-\	.	16b-\	.	.	.	.	.	8r	.	.	.	.	.
.	.	.	16b-\	.	16b-\	.	.	.	.	.	.	.	.	.	.	.
8E-\Jyy	.	.	16b-\	.	16b-\	.	.	.	.	.	8ee-\	.	.	.	.	.
.	.	.	16b-\JJ	.	16b-\JJ	.	.	.	.	.	.	.	.	.	.	.
*Xtremolo	*	*	*Xtremolo	*	*Xtremolo	*	*	*	*	*	*	*	*	*	*	*
=93	=93	=93	=93	=93	=93	=93	=93	=93	=93	=93	=93	=93	=93	=93	=93	=93
!	!	!	!	!	!	!	!	!	!	!	!	!	!	!	!LO:TX:a:t=6	!LO:TX:a:t=6
4BB-/	.	.	16g/LL	.	16ee-\LL	.	16G\LL	Do-	2ryy	2ryy	16ee-\LL	-nit	2ryy	2ryy	0r	0r
.	.	.	16f/	.	16dd\	.	16F\JJ	.	.	.	16dd\JJ	.	.	.	.	.
.	.	.	16cc/	.	16aa-\	.	16c\LL	.	.	.	16aa-\LL	qui	.	.	.	.
.	.	.	16a-/JJ	.	16ff\JJ	.	16A-\JJ	.	.	.	16ff\JJ	.	.	.	.	.
4E-\	.	.	16a-/LL	.	16ff\LL	.	16A-\LL	-mi-	.	.	16ff\LL	.	.	.	.	.
.	.	.	16g/J	.	16ee-\J	.	16G\J	.	.	.	16ee-\JJ	.	.	.	.	.
.	.	.	8g/J	.	8ee-\J	.	8G\J	-ni	.	.	8ee-\	ve-	.	.	.	.
!	!	!	!	!	!	!	!	!	!	!	!LO:LB:g=original	!	!	!	!	!
=94	=94	=94	=94	=94	=94	=94	=94	=94	=94	=94	=94	=94	=94	=94	=94	=94
*	*	*	*	*	*	*	*	*ij	*	*	*	*	*	*	*	*
!	!	!	!LO:TX:a:t=P:problem=takt zapisany repetycją	!	!	!	!	!	!	!	!	!	!	!	!	!
4BB-/	.	.	16g/LLyy	.	8ee-\L	.	16G\LL	Do-	2ryy	2ryy	16ee-\LL	-nit	2ryy	2ryy	.	.
.	.	.	16f/yy	.	.	.	16F\JJ	.	.	.	16dd\JJ	.	.	.	.	.
.	.	.	16cc/yy	.	16aa-\L	.	16c\LL	.	.	.	16aa-\LL	qui	.	.	.	.
.	.	.	16a-/JJyy	.	16ff\JJ	.	16A-\JJ	.	.	.	16ff\JJ	.	.	.	.	.
4E-\	.	.	16a-/LLyy	.	(16ff\LL	.	16A-\LL	-mi-	.	.	16ff\LL	.	.	.	.	.
.	.	.	16g/Jyy	.	16ee-\J)	.	16G\J	.	.	.	16ee-\JJ	.	.	.	.	.
.	.	.	8g/Jyy	.	8ee-\J	.	8G\J	-ni	.	.	8ee-\	ve	.	.	.	.
*	*	*	*	*	*	*	*	*Xij	*	*	*	*	*	*	*	*
!	!	!	!	!	!LO:LB:g=original	!	!	!	!	!	!	!	!	!	!	!
=95	=95	=95	=95	=95	=95	=95	=95	=95	=95	=95	=95	=95	=95	=95	=95	=95
*	*	*	*tremolo	*	*	*	*	*	*	*	*	*	*	*	*	*
8G\L	.	.	8e-/L	.	8b-\L	.	4G\	qui	2ryy	2ryy	8.b-\L	ve-	2ryy	2ryy	.	.
8G\	.	.	8e-/	.	8b-\	.	.	.	.	.	.	.	.	.	.	.
.	.	.	.	.	.	.	.	.	.	.	16dd\Jk	.	.	.	.	.
.	.	.	.	.	.	.	.	.	.	.	8qqdd/	.	.	.	.	.
8A-X\	.	.	8e-/	.	8cc\	.	4A-X\	.	.	.	4cc\	-nit	.	.	.	.
8A-\J	.	.	8e-/J	.	8cc\J	.	.	.	.	.	.	.	.	.	.	.
*	*	*	*Xtremolo	*	*	*	*	*	*	*	*	*	*	*	*	*
!LO:LB:g=original	!	!	!	!	!	!	!	!	!	!	!	!	!	!	!	!
=96	=96	=96	=96	=96	=96	=96	=96	=96	=96	=96	=96	=96	=96	=96	=96	=96
*	*	*	*	*	*	*	*	*	*	*	*	*ij	*	*	*	*
8An\L	.	.	8e-/L	.	8cc\L	.	4An\	ve-	2ryy	2ryy	8.cc\L	ve-	2ryy	2ryy	.	.
8A\	.	.	8f/	.	8cc\	.	.	.	.	.	.	.	.	.	.	.
.	.	.	.	.	.	.	.	.	.	.	16ee-\Jk	.	.	.	.	.
.	.	.	.	.	.	.	.	.	.	.	8qqee-/	.	.	.	.	.
8B-\	.	.	8f/	.	8dd\	.	4B-\	-nit	.	.	4dd\	-nit	.	.	.	.
*	*	*	*	*	*	*	*	*	*	*	*	*Xij	*	*	*	*
8B-\J	.	.	8f/J	.	8dd\J	.	.	.	.	.	.	.	.	.	.	.
!	!	!	!LO:LB:g=original	!	!	!	!LO:LB:g=original	!	!	!	!	!	!	!	!	!
=97	=97	=97	=97	=97	=97	=97	=97	=97	=97	=97	=97	=97	=97	=97	=97	=97
8D\L	.	.	8b-\L	.	8ff\L	.	4A-\	in	2ryy	2ryy	8.ff\L	in	2ryy	2ryy	1r	1r
8D\	.	.	8b-\J	.	8ff\J	.	.	.	.	.	.	.	.	.	.	.
.	.	.	.	.	.	.	.	.	.	.	16aa-\Jk	no-	.	.	.	.
8E-\	.	.	16b-\LL	.	16gg\LL	.	8E-\L	no-	.	.	16gg\LL	-mi-	.	.	.	.
.	.	.	16a-\	.	16ff\	.	.	.	.	.	16ff\	.	.	.	.	.
8AAn\J	.	.	16cc\	.	16aa-\	.	8A-X\J	-mi-	.	.	16aa-\	-ne	.	.	.	.
.	.	.	16a-\JJ	.	16ff\JJ	.	.	.	.	.	16ff\JJ	.	.	.	.	.
=98	=98	=98	=98	=98	=98	=98	=98	=98	=98	=98	=98	=98	=98	=98	=98	=98
4BB-/	.	.	8g/L	.	8ee-\L	.	8G\L	-ne	2ryy	2ryy	8ee-\L	do-	2ryy	2ryy	.	.
.	.	.	8f/J	.	8dd\	.	8F\J	Do-	.	.	8dd\J	-mi-	.	.	.	.
4D\	.	.	16g\LL	.	8ee-\	.	4G\	-mini	.	.	4ee-\	-ni	.	.	.	.
.	.	.	16b-\	.	.	.	.	.	.	.	.	.	.	.	.	.
.	.	.	16b-\	.	8gg\J	.	.	.	.	.	.	.	.	.	.	.
!	!	!	!	!	!	!	!	!	!	!	!LO:TX:t=P:problem=koniec partii	!	!	!	!	!
.	.	.	16b-\JJ	.	.	.	.	.	.	.	.	.	.	.	.	.
=99	=99	=99	=99	=99	=99	=99	=99	=99	=99	=99	=99	=99	=99	=99	=99	=99
*	*	*	*tremolo	*	*	*	*	*	*	*	*	*	*	*	*	*
!	!	!	!	!	!	!	!LO:TX:a:t=10.	!	!	!	!	!	!	!	!	!
8F\L	.	.	16b-\LL	.	(32aa-\LLL	.	0r	.	2ryy	2ryy	2ryy	.	2ryy	2ryy	2b-\	[<2bb-\
.	.	.	.	.	32gg\	.	.	.	.	.	.	.	.	.	.	.
.	.	.	16b-\	.	32aa-\	.	.	.	.	.	.	.	.	.	.	.
.	.	.	.	.	32ff\JJJ)	.	.	.	.	.	.	.	.	.	.	.
8F\J	.	.	16b-\	.	8dd\	.	.	.	.	.	.	.	.	.	.	.
.	.	.	16b-\	.	.	.	.	.	.	.	.	.	.	.	.	.
8D\L	.	.	16b-\	.	8r	.	.	.	.	.	.	.	.	.	.	.
.	.	.	16b-\	.	.	.	.	.	.	.	.	.	.	.	.	.
8D\J	.	.	16b-\	.	8ff\	.	.	.	.	.	.	.	.	.	.	.
.	.	.	16b-\JJ	.	.	.	.	.	.	.	.	.	.	.	.	.
!	!	!	!	!	!	!	!	!	!	!	!	!	!	!	!LO:LB:g=original	!
=100	=100	=100	=100	=100	=100	=100	=100	=100	=100	=100	=100	=100	=100	=100	=100	=100
*tremolo	*	*	*	*	*	*	*	*	*	*	*	*	*	*	*	*
8E-\L	.	.	16b-\LL	.	(32gg\LLL	.	.	.	2ryy	2ryy	2ryy	.	2ryy	2ryy	2b-\	2bb-\_<
.	.	.	.	.	32ff\	.	.	.	.	.	.	.	.	.	.	.
.	.	.	16b-\	.	32gg\)	.	.	.	.	.	.	.	.	.	.	.
.	.	.	.	.	32ee-\JJJ	.	.	.	.	.	.	.	.	.	.	.
8E-\	.	.	16b-\	.	8b-\	.	.	.	.	.	.	.	.	.	.	.
.	.	.	16b-\	.	.	.	.	.	.	.	.	.	.	.	.	.
8E-\	.	.	16b-\	.	8r	.	.	.	.	.	.	.	.	.	.	.
.	.	.	16b-\	.	.	.	.	.	.	.	.	.	.	.	.	.
8E-\J	.	.	16b-\	.	8gg\	.	.	.	.	.	.	.	.	.	.	.
.	.	.	16b-\JJ	.	.	.	.	.	.	.	.	.	.	.	.	.
*Xtremolo	*	*	*	*	*	*	*	*	*	*	*	*	*	*	*	*
=101	=101	=101	=101	=101	=101	=101	=101	=101	=101	=101	=101	=101	=101	=101	=101	=101
8F\L	.	.	16b-\LL	.	32aa-\LLL	.	.	.	2ryy	2ryy	2ryy	.	2ryy	2ryy	2b-\	2bb-\_<
.	.	.	.	.	32gg\	.	.	.	.	.	.	.	.	.	.	.
.	.	.	16b-\	.	32aa-\	.	.	.	.	.	.	.	.	.	.	.
.	.	.	.	.	32ff\JJJ	.	.	.	.	.	.	.	.	.	.	.
8F\J	.	.	16b-\	.	8dd\	.	.	.	.	.	.	.	.	.	.	.
.	.	.	16b-\	.	.	.	.	.	.	.	.	.	.	.	.	.
8D\L	.	.	16b-\	.	8r	.	.	.	.	.	.	.	.	.	.	.
.	.	.	16b-\	.	.	.	.	.	.	.	.	.	.	.	.	.
8D\J	.	.	16b-\	.	8ff\	.	.	.	.	.	.	.	.	.	.	.
.	.	.	16b-\JJ	.	.	.	.	.	.	.	.	.	.	.	.	.
!	!	!	!	!	!	!	!	!	!	!	!	!	!	!	!	!LO:LB:g=original
=102	=102	=102	=102	=102	=102	=102	=102	=102	=102	=102	=102	=102	=102	=102	=102	=102
*tremolo	*	*	*	*	*	*	*	*	*	*	*	*	*	*	*	*
8E-\L	.	.	16b-\LL	.	32gg\LLL	.	.	.	2ryy	2ryy	2ryy	.	2ryy	2ryy	2b-\	2bb-\]
.	.	.	.	.	32ff\	.	.	.	.	.	.	.	.	.	.	.
.	.	.	16b-\	.	32gg\	.	.	.	.	.	.	.	.	.	.	.
.	.	.	.	.	32ee-\JJJ	.	.	.	.	.	.	.	.	.	.	.
8E-\	.	.	16b-\	.	8b-\	.	.	.	.	.	.	.	.	.	.	.
.	.	.	16b-\	.	.	.	.	.	.	.	.	.	.	.	.	.
!	!	!	!	!	!LO:LB:g=original	!	!	!	!	!	!	!	!	!	!	!
8E-\	.	.	16b-\	.	8b-\L	.	.	.	.	.	.	.	.	.	.	.
.	.	.	16b-\	.	.	.	.	.	.	.	.	.	.	.	.	.
8E-\J	.	.	16b-\	.	16g\L	.	.	.	.	.	.	.	.	.	.	.
.	.	.	16b-\JJ	.	16b-\JJ	.	.	.	.	.	.	.	.	.	.	.
*Xtremolo	*	*	*Xtremolo	*	*	*	*	*	*	*	*	*	*	*	*	*
=103	=103	=103	=103	=103	=103	=103	=103	=103	=103	=103	=103	=103	=103	=103	=103	=103
8r	.	.	8f/	.	8a-/	.	0r	.	2ryy	2ryy	2ryy	.	2ryy	2ryy	8ff\	8aa-\
8D\L	.	.	4f/	.	4a-/	.	.	.	.	.	.	.	.	.	4ff\	4aa-\
8D\	.	.	.	.	.	.	.	.	.	.	.	.	.	.	.	.
8E-\J	.	.	16e-/LL	.	16g/LL	.	.	.	.	.	.	.	.	.	16ee-\LL	16gg\LL
.	.	.	16f/JJ	.	16b-/JJ	.	.	.	.	.	.	.	.	.	16gg\JJ	16bb-\JJ
=104	=104	=104	=104	=104	=104	=104	=104	=104	=104	=104	=104	=104	=104	=104	=104	=104
8r	.	.	8f/	.	8a-/	.	.	.	2ryy	2ryy	2ryy	.	2ryy	2ryy	8ff\	8aa-\
8D\L	.	.	4f/	.	4a-/	.	.	.	.	.	.	.	.	.	4ff\	4aa-\
8D\	.	.	.	.	.	.	.	.	.	.	.	.	.	.	.	.
8E-\J	.	.	8e-/	.	8g/	.	.	.	.	.	.	.	.	.	8ee-\	8gg\
=105	=105	=105	=105	=105	=105	=105	=105	=105	=105	=105	=105	=105	=105	=105	=105	=105
8r	.	.	8.A-/L	.	8.f/L	.	.	.	2ryy	2ryy	2ryy	.	2ryy	2ryy	8.a-\L	8.ff\L
!LO:TX:a:t=P:problem=mixed beam	!	!	!	!	!	!	!	!	!	!	!	!	!	!	!	!
8A-\L	.	.	.	.	.	.	.	.	.	.	.	.	.	.	.	.
.	.	.	32c/LL	.	32a-/LL	.	.	.	.	.	.	.	.	.	32cc\LL	32aa-\LL
.	.	.	32A-/JJJ	.	32f/JJJ	.	.	.	.	.	.	.	.	.	32b-\JJJ	32ff\JJJ
8B-\	.	.	8G/L	.	8e-/L	.	.	.	.	.	.	.	.	.	8g/L	8ee-\L
8BB-/J	.	.	8A-/J	.	8d/J	.	.	.	.	.	.	.	.	.	8f/J	8dd\J
!	!	!	!LO:LB:g=original	!	!	!	!	!	!	!	!	!	!	!	!	!
=106	=106	=106	=106	=106	=106	=106	=106	=106	=106	=106	=106	=106	=106	=106	=106	=106
!	!	!	!LO:TX:a:t=P:problem=mixed beam	!	!LO:TX:a:t=P:problem=mixed beam	!	!	!	!	!	!	!	!	!	!	!
4E-\	.	.	16G/LL	.	16e-/LL	.	.	.	2ryy	2ryy	2ryy	.	2ryy	2ryy	4g/	4ee-\
.	.	.	16ee-\	.	16gg\	.	.	.	.	.	.	.	.	.	.	.
.	.	.	16dd\	.	16ff\	.	.	.	.	.	.	.	.	.	.	.
.	.	.	16cc\JJ	.	16ee-\JJ	.	.	.	.	.	.	.	.	.	.	.
4r	.	.	16b-\LL	.	16dd\LL	.	.	.	.	.	.	.	.	.	4r	4r
.	.	.	16a-\	.	16cc\	.	.	.	.	.	.	.	.	.	.	.
.	.	.	16g\	.	16b-\	.	.	.	.	.	.	.	.	.	.	.
.	.	.	16f\JJ	.	16a-X\JJ	.	.	.	.	.	.	.	.	.	.	.
!LO:LB:g=original	!	!	!	!	!	!	!	!	!	!	!	!	!	!	!	!
=107	=107	=107	=107	=107	=107	=107	=107	=107	=107	=107	=107	=107	=107	=107	=107	=107
!LO:TX:t=P:problem=dwa takty wymazane	!	!	!	!	!	!	!	!	!	!	!	!	!	!	!	!
8r	.	.	16g/LL	.	16b-/LL	.	1r	.	2ryy	2ryy	2ryy	.	2ryy	2ryy	16gg\LL	16bb-\LL
.	.	.	16f/JJ	.	16a-X/JJ	.	.	.	.	.	.	.	.	.	16ff\JJ	16aa-\JJ
8D\L	.	.	4f/	.	4a-/	.	.	.	.	.	.	.	.	.	4ff\	4aa-\
8D\	.	.	.	.	.	.	.	.	.	.	.	.	.	.	.	.
8E-\J	.	.	8e-/	.	8g/	.	.	.	.	.	.	.	.	.	8ee-\	8gg\
=108	=108	=108	=108	=108	=108	=108	=108	=108	=108	=108	=108	=108	=108	=108	=108	=108
8r	.	.	16r	.	16f\LL	.	.	.	2ryy	2ryy	2ryy	.	2ryy	2ryy	16r	16ff\LL
.	.	.	16a-/LL	.	16cc\	.	.	.	.	.	.	.	.	.	16aa-\LL	16ccc\
!LO:TX:a:t=P:problem=mixed beam	!	!	!	!	!	!	!	!	!	!	!	!	!	!	!	!
8A-\L	.	.	16g/	.	16b-\	.	.	.	.	.	.	.	.	.	16gg\	16bb-\
.	.	.	16f/JJ	.	16a-\JJ	.	.	.	.	.	.	.	.	.	16ff\JJ	16aa-\JJ
8B-\	.	.	8e-/L	.	8g/L	.	.	.	.	.	.	.	.	.	8ee-\L	8gg\L
8BB-/J	.	.	8A-/J	.	8fT/J	.	.	.	.	.	.	.	.	.	8a-\J	8ff\J
=109	=109	=109	=109	=109	=109	=109	=109	=109	=109	=109	=109	=109	=109	=109	=109	=109
!	!	!	!	!	!	!	!LO:TX:t=P:problem=brak taktu	!	!	!	!	!	!	!	!	!
8E-\L	.	.	8G/L	.	8e-/L	.	2ryy	.	2ryy	2ryy	2ryy	.	2ryy	2ryy	8g/L	8ee-\L
8BB-\J	.	.	8G/J	.	8e-/J	.	.	.	.	.	.	.	.	.	8g/J	8ee-\J
!LO:TX:b:i:t=Verte Agnus	!	!	!	!	!	!	!	!	!	!	!	!	!	!	!	!
4EE-/	.	.	4G/	.	4e-/	.	.	.	.	.	.	.	.	.	4g/	4ee-\
==	==	==	==	==	==	==	==	==	==	==	==	==	==	==	==	==
*-	*-	*-	*-	*-	*-	*-	*-	*-	*-	*-	*-	*-	*-	*-	*-	*-
!!!system-decoration: [(g1)][(g2)][(g3)][(g4)]s11
!!!RDF**kern: < = below
!!!ENC: Anastazja Marusiak
!!!END: 2020-07-17
!!!ENC: Marta Lawrence
!!!END: 2021-01-15
!!!YEC: Copyright 2022 Narodowy Instytut Fryderyka Chopina (https://polishscores.org)
!!!YEM: License CC-BY-4.0 (https://creativecommons.org/licenses/by/4.0)
